!!!!SEGMENT: pl-kk--kk-i-515--003_hofmann-leopold--motetto-o-supremum-caeli.krn
!!!cenid: 17xx:1867
!!!COM: Hofmann, Leopold
!!!COM-rismID: pe30001538
!!!CDT: 1738/08/14-1793/03/17
!!!CNT: Austrian
!!!OPR: Motetto
!!!OTL: O supremum caeli
!!!OMV: 003
!!!PDT:
!!!AGN: Sacred; Motet
!!!SMS-siglum: PL-Kk
!!!SMS-shelfmark: Kk.I.515
!!!SMS-shelfwork: 001-003 M
!!!SMS-variant: Violino Primo.:PL-KK-KK-I-515:26,22 Violino2.do:PL-KK-KK-I-515:36,32 Organo.:PL-KK-KK-I-515:60
!!!SMS-altvar: Violino Primo:PL-KK-KK-I-515:20-21 Violino Secondo.:PL-KK-KK-I-515:36,32 Organo.:PL-KK-KK-I-515:55
!!!NIFC-rismSourceID: 1001140207
!!!NIFC-islandoraID: pl-kk:14920
!!!URL-pdf-islandora: https://repozytorium.nifc.pl/islandora/object/pl-kk%3A14920/datastream/PDF/view
!!!URL-scan: https://polish.musicsources.pl/pl/lokalizacje/galeria/rekopisy/6125 @EN{Scan on Polish Music Sources Website} @PL{Skany w portalu Dziedzictwo Muzyki Polskiej w otwartym dostępie}
!!!ONB-nifc: UWAGA: części Motetu: 1. Quid hostem times, 2. Foris bella intus timores, 3. O supremum caeli
!!!AIN: 1 alto 1 cello 3 empty 2 oboe 1 organ 2 soprn 1 tenor 1 timpa 2 violn
!!!key:
**kern	**fba	**kern	**kern	**kern	**kern	**text	**kern	**text	**kern	**text	**kern	**text	**kern	**text	**kern	**kern	**kern	**kern	**kern
*part14	*part14	*part13	*part12	*part11	*part10	*part10	*part9	*part9	*part8	*part8	*part7	*part7	*part6	*part6	*part5	*part4	*part3	*part2	*part1
*staff14	*staff14	*staff13	*staff12	*staff11	*staff10	*staff10	*staff9	*staff9	*staff8	*staff8	*staff7	*staff7	*staff6	*staff6	*staff5	*staff4	*staff3	*staff2	*staff1
*Iorgan	*	*Icello	*Ivioln	*Ivioln	*Iempty	*	*Itenor	*	*Ialto	*	*Isoprn	*	*Isoprn	*	*Itimpa	*Iempty	*Iempty	*Ioboe	*Ioboe
*I"Organo.	*	*I"Violono.	*I"Violino Secondo.	*I"Violino Primo.	*I"Baſso Rip:[ie]no	*	*I"Tenore Rip:[ie]no	*	*I"Alto Rip:[ie]no	*	*I"Soprano Rip:[ie]no	*	*I"Soprano Con:c[erta]to	*	*I"Tympano .	*I"Clarino 2do in C	*I"clarino Primo in C.	*I"Oboe 2do:	*I"Oboe Primo.
*I'org	*	*I'vlne	*I'vl 2	*I'vl 1	*I'B rip	*	*I'T rip	*	*I'A rip	*	*I'S rip	*	*I'S conc	*	*I'timp	*I'clno 2 in C	*I'clno 1 in C	*I'ob 2	*I'ob 1
*clefF4	*	*clefF4	*clefG2	*clefG2	*clefF4	*	*clefC4	*	*clefC3	*	*clefC1	*	*clefC1	*	*clefF4	*clefG2	*clefG2	*clefG2	*clefG2
*k[]	*	*k[]	*k[]	*k[]	*k[]	*	*k[]	*	*k[]	*	*k[]	*	*k[]	*	*k[]	*k[]	*k[]	*k[]	*k[]
*C:	*	*C:	*C:	*C:	*C:	*	*C:	*	*C:	*	*C:	*	*C:	*	*C:	*C:	*C:	*C:	*C:
*M4/4	*	*M4/4	*M4/4	*M4/4	*M4/4	*	*M4/4	*	*M4/4	*	*M4/4	*	*M4/4	*	*M4/4	*M4/4	*M4/4	*M4/4	*M4/4
*met(c)	*	*met(c)	*met(c)	*met(c)	*met(c)	*	*met(c)	*	*met(c)	*	*met(c)	*	*met(c)	*	*met(c)	*met(c)	*met(c)	*met(c)	*met(c)
=1	=1	=1	=1	=1	=1	=1	=1	=1	=1	=1	=1	=1	=1	=1	=1	=1	=1	=1	=1
*	*	*2\right	*	*	*	*	*	*	*	*	*	*	*	*	*	*	*2\right	*2\right	*2\right
!	!	!	!LO:TX:t=P:problem=all\right or middle	!LO:TX:t=P:problem=all\right or middle	!LO:TX:t=P:problem=all\right or middle	!	!	!	!	!	!	!	!	!	!	!LO:TX:t=P:problem=all\right or middle	!LO:TX:t=P:problem=all\right or middle	!	!
!	!	!	!	!	!	!	!	!	!	!	!	!	!LO:TX:t=P:problem=nazwa głosu z okładki lepiej odpowiada pozostałym głosom wokalnym	!	!LO:TX:t=P:problem=partia wyłącznie na okładce	!	!	!	!
!	!	!	!	!	!	!	!	!	!LO:TX:a:Bi:t=Chorus:rj	!	!LO:TX:a:Bi:t=Chorus:problem='Chorus' znajduje się przed kluczem i oznaczeniem metrum	!	!LO:TX:a:Bi:t=Chorus:problem='Chorus' znajduje się przed kluczem i oznaczeniem metrum	!	!	!	!	!	!
!	!	!	!	!	!LO:TX:a:Bi:t=Chorus:problem='Chorus' znajduje się przed kluczem i oznaczeniem metrum	!	!LO:TX:a:Bi:t=Chorus:problem='Chorus' znajduje się przed kluczem i oznaczeniem metrum	!	!	!	!	!	!	!	!	!	!	!	!
!LO:TX:b:Bi:t=Chorus:problem='Chorus' znajduje się przed kluczem i oznaczeniem metrum	!	!	!	!	!	!	!	!	!	!	!	!	!	!	!	!	!	!LO:TX:b:Bi:t=Chorus:problem='Chorus' znajduje się przed kluczem i oznaczeniem metrum	!LO:TX:b:Bi:t=Chorus:problem='Chorus' znajduje się przed kluczem i oznaczeniem metrum
!	!	!	!	!	!	!	!	!	!	!	!	!	!	!	!	!LO:TX:b:Bi:t=Chorus:problem='Chorus' znajduje się przed kluczem i oznaczeniem metrum	!LO:TX:b:Bi:t=Chorus:problem='Chorus' znajduje się przed kluczem i oznaczeniem metrum	!	!
!	!	!	!LO:TX:b:Bi:t=Chorus:problem='Chorus' znajduje się przed kluczem i oznaczeniem metrum	!LO:TX:b:Bi:t=Chorus:problem='Chorus' znajduje się przed kluczem i oznaczeniem metrum	!	!	!	!	!	!	!	!	!	!	!	!	!	!	!
!	!	!LO:TX:b:Bi:t=Chorus:problem='Chorus' znajduje się przed kluczem i oznaczeniem metrum	!	!	!	!	!	!	!	!	!	!	!	!	!	!	!	!	!
!LO:TX:a:Bi:t=All(egr)o mod(era)to:rj	!	!LO:TX:a:Bi:t=All(egr)o&colon; mod(era)to	!LO:TX:a:Bi:t=Allegro molto	!	!LO:TX:a:Bi:t=All(egr)o	!	!LO:TX:a:Bi:t=Allegro:rj	!	!LO:TX:a:Bi:t=Allegro.	!	!	!	!LO:TX:a:Bi:t=All(egr)o	!	!	!LO:TX:a:Bi:t=All(egr)o&colon; molto.	!	!LO:TX:a:Bi:t=All(egr)o&colon; molto.	!LO:TX:a:Bi:t=All(egr)o&colon; molto
!LO:TX:a:Bi:t=Solo:rj	!	!	!	!	!LO:TX:a:Bi:t=9	!	!	!	!	!	!	!	!	!	!	!	!	!	!
4C/	.	4C/	4cc 4e 4G/	4cc 4e 4G/	00r	.	00r	.	00r	.	00r	.	00r	.	1ryy	4e/	4cc\	4cc\	4cc\
!	!	!	!LO:TUP:a:problem=klamra łukowa	!LO:TUP:a:problem=klamra łukowa, kropka zamiast numeru	!	!	!	!	!	!	!	!	!	!	!	!	!	!	!
8c\L	.	8c\L	24ee\LL	24ee\LL	.	.	.	.	.	.	.	.	.	.	.	4r	4r	8ee\L	8ee\L
.	.	.	24dd\	24dd\	.	.	.	.	.	.	.	.	.	.	.	.	.	.	.
.	.	.	24ee\JJ	24ee\JJ	.	.	.	.	.	.	.	.	.	.	.	.	.	.	.
!	!	!	!LO:TUP:a:problem=klamra łukowa	!LO:TUP:a:problem=klamra łukowa, kropka zamiast numeru	!	!	!	!	!	!	!	!	!	!	!	!	!	!	!
8d\J	.	8d\J	24ff\LL	24ff\LL	.	.	.	.	.	.	.	.	.	.	.	.	.	8ff\	8ff\
.	.	.	24ee\	24ee\	.	.	.	.	.	.	.	.	.	.	.	.	.	.	.
.	.	.	24ff\JJ	24ff\JJ	.	.	.	.	.	.	.	.	.	.	.	.	.	.	.
!	!	!	!LO:TUP:a:problem=klamra łukowa	!LO:TUP:a:problem=klamra łukowa, kropka zamiast numeru	!	!	!	!	!	!	!	!	!	!	!	!	!	!	!
8e\L	.	8e\L	24gg\LL	24gg\LL	.	.	.	.	.	.	.	.	.	.	.	2r	2r	8gg\	8gg\
.	.	.	24ff\	24ff\	.	.	.	.	.	.	.	.	.	.	.	.	.	.	.
.	.	.	24gg\J	24gg\J	.	.	.	.	.	.	.	.	.	.	.	.	.	.	.
8f\J	.	8f\J	8aa\J	8aa\J	.	.	.	.	.	.	.	.	.	.	.	.	.	8aa\J	8aa\J
16.F\LL	.	16.F\LL	4r	4r	.	.	.	.	.	.	.	.	.	.	.	.	.	4r	4r
32E\K	.	32E\K	.	.	.	.	.	.	.	.	.	.	.	.	.	.	.	.	.
16.D\	.	16.D\	.	.	.	.	.	.	.	.	.	.	.	.	.	.	.	.	.
32C\JJk	.	32C\JJk	.	.	.	.	.	.	.	.	.	.	.	.	.	.	.	.	.
=2	=2	=2	=2	=2	=2	=2	=2	=2	=2	=2	=2	=2	=2	=2	=2	=2	=2	=2	=2
!	!	!	!LO:TUP:a:problem=klamra łukowa	!LO:TUP:a:problem=klamra łukowa, kropka zamiast numeru	!	!	!	!	!	!	!	!	!	!	!	!	!	!	!
8BB/L	.	8BB/L	24dd\LL	24dd\LL	.	.	.	.	.	.	.	.	.	.	1ryy	4r	4r	8dd\L	8dd\L
.	.	.	24cc\	24cc\	.	.	.	.	.	.	.	.	.	.	.	.	.	.	.
.	.	.	24dd\JJ	24dd\JJ	.	.	.	.	.	.	.	.	.	.	.	.	.	.	.
!	!	!	!LO:TUP:a:problem=klamra łukowa	!LO:TUP:a:problem=klamra łukowa, kropka zamiast numeru	!	!	!	!	!	!	!	!	!	!	!	!	!	!	!
8C/	.	8C/	24ee\LL	24ee\LL	.	.	.	.	.	.	.	.	.	.	.	.	.	8ee\J	8ee\J
.	.	.	24dd\	24dd\	.	.	.	.	.	.	.	.	.	.	.	.	.	.	.
.	.	.	24ee\JJ	24ee\JJ	.	.	.	.	.	.	.	.	.	.	.	.	.	.	.
8D/	.	8D/	16ff\LL	16ff\LL	.	.	.	.	.	.	.	.	.	.	.	8r	8r	16ff\LL	16ff\LL
.	.	.	16dd\	(>16dd\	.	.	.	.	.	.	.	.	.	.	.	.	.	16dd\	16dd\
8G/J	.	8G/J	(>16cc\	16cc\	.	.	.	.	.	.	.	.	.	.	.	8g/	8dd\	16cc\	16cc\
.	.	.	16b\JJ)	16b\JJ)	.	.	.	.	.	.	.	.	.	.	.	.	.	16b\JJ	16b\JJ
!	!	!	!LO:LB:g=original	!LO:LB:g=original	!	!	!	!	!	!	!	!	!	!	!	!	!	!	!
!	!	!	!	!	!	!	!	!	!	!	!	!	!	!	!	!	!	!LO:TX:t=P:problem=mixed beam	!
8E\L	.	8E\L	16cc/LL	16cc\LL	.	.	.	.	.	.	.	.	.	.	.	4g/	8cc\L	8cc\L	8cc\L
.	.	.	16g/JJ	16g\JJ	.	.	.	.	.	.	.	.	.	.	.	.	.	.	.
!	!	!	!LO:TUP:b:problem=klamra łukowa	!LO:TUP:b:problem=klamra łukowa, kropka zamiast numeru	!	!	!	!	!	!	!	!	!	!	!	!	!	!	!
8C\	.	8C\	24g/LL	24g/LL	.	.	.	.	.	.	.	.	.	.	.	.	8ee\J	8g/J	8g\J
.	.	.	24a/	24a/	.	.	.	.	.	.	.	.	.	.	.	.	.	.	.
.	.	.	24g/JJ	24g/JJ	.	.	.	.	.	.	.	.	.	.	.	.	.	.	.
8D\	.	8D\	16ff\LL	16ff\LL	.	.	.	.	.	.	.	.	.	.	.	8r	8r	16ff\LL	16ff\LL
.	.	.	16dd\	16dd\	.	.	.	.	.	.	.	.	.	.	.	.	.	16dd\	16dd\
8G\J	.	8G\J	(>16cc\	(>16cc\	.	.	.	.	.	.	.	.	.	.	.	8g/	8dd\	16cc\	16cc\
.	.	.	16b\JJ)	16b\JJ)	.	.	.	.	.	.	.	.	.	.	.	.	.	16b\JJ	16b\JJ
!	!	!LO:LB:g=original	!	!	!	!	!	!	!	!	!	!	!	!	!	!	!	!	!LO:LB:g=original
=3	=3	=3	=3	=3	=3	=3	=3	=3	=3	=3	=3	=3	=3	=3	=3	=3	=3	=3	=3
4E\	6 x	4E\	16gg\LL	16gg\LL	.	.	.	.	.	.	.	.	.	.	1ryy	4g/	4cc\	4gg\	4gg\
.	.	.	16ee\	16ee\	.	.	.	.	.	.	.	.	.	.	.	.	.	.	.
.	.	.	(>16dd\	(>16dd\	.	.	.	.	.	.	.	.	.	.	.	.	.	.	.
.	.	.	16cc\JJ)	16cc\JJ)	.	.	.	.	.	.	.	.	.	.	.	.	.	.	.
4F\	.	4F\	16aa\LL	16aa\LL	.	.	.	.	.	.	.	.	.	.	.	4r	4r	4cc\	4aa\
.	.	.	16ff\	(>16ff\	.	.	.	.	.	.	.	.	.	.	.	.	.	.	.
.	.	.	(>16ee\	16ee\	.	.	.	.	.	.	.	.	.	.	.	.	.	.	.
.	.	.	16dd\JJ)	16dd\JJ)	.	.	.	.	.	.	.	.	.	.	.	.	.	.	.
!	!	!	!	!	!	!	!	!	!	!	!	!	!	!	!	!	!	!LO:LB:g=original	!
8F\L	4 2	8F\L	16.bb\LL	16.bb\LL	.	.	.	.	.	.	.	.	.	.	.	4r	4r	8dd\L	8bb\L
.	.	.	64aa\LL	64aa\LL	.	.	.	.	.	.	.	.	.	.	.	.	.	.	.
.	.	.	64bb\JJ	64bb\JJ	.	.	.	.	.	.	.	.	.	.	.	.	.	.	.
8E\	6 x	8E\	16ccc\	16ccc\	.	.	.	.	.	.	.	.	.	.	.	.	.	8ee\	16aa\L
.	.	.	16gg\JJ	16gg\JJ	.	.	.	.	.	.	.	.	.	.	.	.	.	.	16gg\JJ
8D\	6 x	8D\	16gg\LL	16gg\LL	.	.	.	.	.	.	.	.	.	.	.	8r	8r	8b\	16gg\LL
.	.	.	16ff\	16ff\	.	.	.	.	.	.	.	.	.	.	.	.	.	.	16ff\J
8C\J	.	8C\J	16ee\	16ee\	.	.	.	.	.	.	.	.	.	.	.	8g/	8ee\	8cc\J	8ee\J
.	.	.	16ccc\JJ	16ccc\JJ	.	.	.	.	.	.	.	.	.	.	.	.	.	.	.
!LO:LB:g=original	!	!	!	!	!	!	!	!	!	!	!	!	!	!	!	!	!	!	!
=4	=4	=4	=4	=4	=4	=4	=4	=4	=4	=4	=4	=4	=4	=4	=4	=4	=4	=4	=4
!LO:TX:t=P:problem=mixed beam	!	!LO:TX:t=P:problem=mixed beam	!	!	!	!	!	!	!	!	!	!	!	!	!	!	!	!	!
8G\L	6 4	8G\L	8ccT>\L	8eet>\L	.	.	.	.	.	.	.	.	.	.	1ryy	4g/	8ee\L	8cc\L	8ee\L
16.GG/L	5\ 3	16.GG/L	8b\J	8dd\J	.	.	.	.	.	.	.	.	.	.	.	.	8dd\J	8b\J	8dd\J
32BB/JJk	.	32BB/JJk	.	.	.	.	.	.	.	.	.	.	.	.	.	.	.	.	.
16.D\LL	.	16.D\LL	4r	4r	.	.	.	.	.	.	.	.	.	.	.	4r	4r	4r	4r
32G\K	.	32G\K	.	.	.	.	.	.	.	.	.	.	.	.	.	.	.	.	.
16.BB\	.	16.BB\	.	.	.	.	.	.	.	.	.	.	.	.	.	.	.	.	.
32D\JJk	.	32D\JJk	.	.	.	.	.	.	.	.	.	.	.	.	.	.	.	.	.
!LO:TX:t=P:problem=mixed beam	!	!LO:TX:t=P:problem=mixed beam	!	!	!	!	!	!	!	!	!	!	!	!	!	!	!	!	!
8GG/L	.	8GG/L	2r	4gg 4g/	.	.	.	.	.	.	.	.	.	.	.	4.g/	4.dd\	2r	2r
8G\	.	8G\	.	.	.	.	.	.	.	.	.	.	.	.	.	.	.	.	.
8G\	.	8G\	.	(>16gg\LL	.	.	.	.	.	.	.	.	.	.	.	.	.	.	.
.	.	.	.	16ff\)	.	.	.	.	.	.	.	.	.	.	.	.	.	.	.
8G\J	.	8G\J	.	(>16dd\	.	.	.	.	.	.	.	.	.	.	.	16g/LL	8dd\	.	.
.	.	.	.	16ff\JJ)	.	.	.	.	.	.	.	.	.	.	.	16g/JJ	.	.	.
!	!	!	!LO:LB:g=original	!LO:LB:g=original	!	!	!	!	!	!	!	!	!	!	!	!	!	!	!
!	!	!	!	!	!	!	!	!	!	!	!	!	!	!	!	!LO:LB:g=original	!LO:LB:g=original	!	!
=5	=5	=5	=5	=5	=5	=5	=5	=5	=5	=5	=5	=5	=5	=5	=5	=5	=5	=5	=5
*	*	*tremolo	*	*	*	*	*	*	*	*	*	*	*	*	*	*	*	*	*
!	!	!	!	!LO:TUP:a:problem=klamra łukowa, kropka zamiast numeru	!	!	!	!	!	!	!	!	!	!	!	!	!	!	!
8G\L	6 4	8G\L	[<4g 4G/	24ee\LL	00r	.	00r	.	00r	.	00r	.	00r	.	1ryy	8g/L	8ee\L	8r	8r
.	.	.	.	24dd\	.	.	.	.	.	.	.	.	.	.	.	.	.	.	.
.	.	.	.	24cc\J	.	.	.	.	.	.	.	.	.	.	.	.	.	.	.
8G\	5\_ 3_	8G\	.	8b\J	.	.	.	.	.	.	.	.	.	.	.	8g/J	8dd\J	4b\	4dd\
8G\	.	8G\	16g/LL]	4r	.	.	.	.	.	.	.	.	.	.	.	4r	4r	.	.
.	.	.	(<16f/	.	.	.	.	.	.	.	.	.	.	.	.	.	.	.	.
8G\J	X X	8G\J	16d/	.	.	.	.	.	.	.	.	.	.	.	.	.	.	8b\	8dd\
.	.	.	16f/JJ)	.	.	.	.	.	.	.	.	.	.	.	.	.	.	.	.
!	!	!	!LO:TUP:b:problem=klamra łukowa	!	!	!	!	!	!	!	!	!	!	!	!	!	!	!LO:TUP:a:problem=klamra łukowa	!LO:TUP:a:problem=klamra łukowa
8G\L	6 4	8G\L	24e/LL	4gg 4g/	.	.	.	.	.	.	.	.	.	.	.	8r	8r	24cc\LL	24ee\LL
.	.	.	24d/	.	.	.	.	.	.	.	.	.	.	.	.	.	.	24dd\	24ff\
.	.	.	24c/J	.	.	.	.	.	.	.	.	.	.	.	.	.	.	24ee\J	24gg\J
8G\	5\_ 3_	8G\	8B/J	.	.	.	.	.	.	.	.	.	.	.	.	4g/	4dd\	8ee\J	8gg\J
8G\	.	8G\	4r	16gg\LL	.	.	.	.	.	.	.	.	.	.	.	.	.	4r	4r
.	.	.	.	(>16ff\	.	.	.	.	.	.	.	.	.	.	.	.	.	.	.
8G\J	X X	8G\J	.	16dd\	.	.	.	.	.	.	.	.	.	.	.	16g/LL	8dd\	.	.
.	.	.	.	16ff\JJ)	.	.	.	.	.	.	.	.	.	.	.	16g/JJ	.	.	.
!	!	!LO:LB:g=original	!	!	!	!	!	!	!	!	!	!	!	!	!	!	!	!	!
=6	=6	=6	=6	=6	=6	=6	=6	=6	=6	=6	=6	=6	=6	=6	=6	=6	=6	=6	=6
*	*	*	*^	*	*	*	*	*	*	*	*	*	*	*	*	*	*	*	*
*	*	*	*	*	*	*	*	*	*	*	*	*	*	*	*	*	*	*	*	*Xtuplet
!	!	!	!	!	!LO:TUP:a:problem=klamra łukowa, kropka zamiast numeru	!	!	!	!	!	!	!	!	!	!	!	!	!	!	!
8G\L	6 4	8G\L	[<4g 4G/	2ryy	24ee\LL	.	.	.	.	.	.	.	.	.	.	1ryy	8g/L	8ee\L	8r	8r
.	.	.	.	.	24dd\	.	.	.	.	.	.	.	.	.	.	.	.	.	.	.
.	.	.	.	.	24cc\J	.	.	.	.	.	.	.	.	.	.	.	.	.	.	.
8G\	5\_ 3_	8G\	.	.	8b\J	.	.	.	.	.	.	.	.	.	.	.	8g/J	8dd\J	4b/	4dd\
8G\	.	8G\	16g/LL]	.	4r	.	.	.	.	.	.	.	.	.	.	.	4r	4r	.	.
.	.	.	16f/	.	.	.	.	.	.	.	.	.	.	.	.	.	.	.	.	.
8G\J	X X	8G\J	16d/	.	.	.	.	.	.	.	.	.	.	.	.	.	.	.	8b/	8dd\
.	.	.	16f/JJ	.	.	.	.	.	.	.	.	.	.	.	.	.	.	.	.	.
!	!	!	!	!	!	!	!	!	!	!	!	!	!	!	!	!	!	!	!	!LO:LB:g=original
*	*	*Xtremolo	*	*	*	*	*	*	*	*	*	*	*	*	*	*	*	*	*	*
!LO:TX:t=P:problem=mixed beam	!	!LO:TX:t=P:problem=mixed beam	!	!LO:TX:t=P:problem=mixed beam	!	!	!	!	!	!	!	!	!	!	!	!	!	!	!	!
!	!	!	!	!	!	!	!	!	!	!	!	!	!	!	!	!	!	!	!LO:TUP:a:problem=klamra łukowa	!
8c\L	.	8c\L	16ee 16cc/	16e/KL	16cc\KL	.	.	.	.	.	.	.	.	.	.	.	2c/	2cc\	24cc\LL	24ee\LL
.	.	.	.	.	.	.	.	.	.	.	.	.	.	.	.	.	.	.	24dd\	24ff\
.	.	.	8ryy	8ee\	8ee\	.	.	.	.	.	.	.	.	.	.	.	.	.	.	.
.	.	.	.	.	.	.	.	.	.	.	.	.	.	.	.	.	.	.	24ee\JJ	24gg\JJ
!	!	!	!	!	!	!	!	!	!	!	!	!	!	!	!	!	!	!	!LO:LB:g=original	!
8C/	.	8C/	.	.	.	.	.	.	.	.	.	.	.	.	.	.	.	.	4ee\	4gg\
.	.	.	8ryy	8gg\	8gg\	.	.	.	.	.	.	.	.	.	.	.	.	.	.	.
8E/	.	8E/	.	.	.	.	.	.	.	.	.	.	.	.	.	.	.	.	.	.
.	.	.	8ryy	8ccc\	8ccc\	.	.	.	.	.	.	.	.	.	.	.	.	.	.	.
8C/J	.	8C/J	.	.	.	.	.	.	.	.	.	.	.	.	.	.	.	.	[<8gg\	8gg\
!	!	!	!	!	!LO:TX:t=P:problem='♭' above	!	!	!	!	!	!	!	!	!	!	!	!	!	!	!
.	.	.	16ryy	16bb-X\Jk	16bb-Xi\Jk	.	.	.	.	.	.	.	.	.	.	.	.	.	.	.
*	*	*	*v	*v	*	*	*	*	*	*	*	*	*	*	*	*	*	*	*	*
=7	=7	=7	=7	=7	=7	=7	=7	=7	=7	=7	=7	=7	=7	=7	=7	=7	=7	=7	=7
4F\	.	4F\	(>16bb-X\LL	(>16bb-X\LL	.	.	.	.	.	.	.	.	.	.	1ryy	4c/	4cc\	16gg\LL]	16gg\LL
.	.	.	16gg#X\)	16gg#X\)	.	.	.	.	.	.	.	.	.	.	.	.	.	(>16gg#X\	16gg#X\
.	.	.	(>16aa\	(>16aa\	.	.	.	.	.	.	.	.	.	.	.	.	.	16aa\	16aa\
.	.	.	16ee\JJ)	16ee\JJ)	.	.	.	.	.	.	.	.	.	.	.	.	.	16ee\JJ)	16ee\JJ
4r	.	4r	(>16ff\LL	16ff\LL	.	.	.	.	.	.	.	.	.	.	.	4r	4r	16ff\LL	16ff\LL
.	.	.	16cc#X\)	16cc#X\	.	.	.	.	.	.	.	.	.	.	.	.	.	(>16cc#X\	16cc#X\
.	.	.	(>16dd\	16dd\	.	.	.	.	.	.	.	.	.	.	.	.	.	16dd\	16dd\
.	.	.	16a\JJ)	16a\JJ	.	.	.	.	.	.	.	.	.	.	.	.	.	16a\JJ)	16a\JJ
!	!	!	!LO:LB:g=original	!LO:LB:g=original	!	!	!	!	!	!	!	!	!	!	!	!	!	!	!
!LO:TX:t=P:problem=mixed beam	!	!LO:TX:t=P:problem=mixed beam	!	!	!	!	!	!	!	!	!	!	!	!	!	!	!	!	!
8G\L	6 4	8G\L	16g/LL	4g/	.	.	.	.	.	.	.	.	.	.	.	8g/L	4ee\	8g/	4g/
!	!	!	!LO:SIC:n=1:s=16ccn:v	!	!	!	!	!	!	!	!	!	!	!	!	!	!	!	!
.	.	.	16cc# 16e/	.	.	.	.	.	.	.	.	.	.	.	.	.	.	.	.
!	!	!	!LO:SIC:n=1:s=16ccn:v	!	!	!	!	!	!	!	!	!	!	!	!	!	!	!LO:SIC:s=4ccn:v	!
8G\	.	8G\	16cc# 16e/	.	.	.	.	.	.	.	.	.	.	.	.	16g/L	.	4cc#\	.
!	!	!	!LO:SIC:n=1:s=16ccn:v	!	!	!	!	!	!	!	!	!	!	!	!	!	!	!	!
.	.	.	16cc#JJ 16e/	.	.	.	.	.	.	.	.	.	.	.	.	16g/JJ	.	.	.
8GG/	5\ 4	8GG/	16bLL 16d/	4ddT>\	.	.	.	.	.	.	.	.	.	.	.	8g/L	4ddT>\	.	4ddT>\
.	.	.	16b 16d/	.	.	.	.	.	.	.	.	.	.	.	.	.	.	.	.
8GG/J	x 3	8GG/J	16b 16d/	.	.	.	.	.	.	.	.	.	.	.	.	8g/J	.	8b\	.
.	.	.	16bJJ 16d/	.	.	.	.	.	.	.	.	.	.	.	.	.	.	.	.
=8	=8	=8	=8	=8	=8	=8	=8	=8	=8	=8	=8	=8	=8	=8	=8	=8	=8	=8	=8
!	!	!	!LO:TX:t=P:problem=mixed beam	!	!	!	!	!	!	!	!	!	!	!	!	!	!	!	!
8C/	.	8C/	8ccL 8e/	8cc\L	.	.	.	.	.	.	.	.	.	.	1ryy	8e/	8cc\	4cc\	4cc\
!	!	!	!LO:TUP:a:problem=klamra łukowa, kropka zamiast numeru	!LO:TUP:a:problem=klamra łukowa, kropka zamiast numeru	!	!	!	!	!	!	!	!	!	!	!	!	!	!	!
8r	.	8r	24aa\L	24ccc\L	.	.	.	.	.	.	.	.	.	.	.	8r	8r	.	.
.	.	.	24gg\	24bb\	.	.	.	.	.	.	.	.	.	.	.	.	.	.	.
.	.	.	24ff\JJ	24aa\JJ	.	.	.	.	.	.	.	.	.	.	.	.	.	.	.
!LO:LB:g=original	!	!	!	!	!	!	!	!	!	!	!	!	!	!	!	!	!	!	!
8C/	.	8C/	8ee\L	8gg\L	.	.	.	.	.	.	.	.	.	.	.	8e/	8cc\	4r	4r
!	!	!	!LO:TUP:a:problem=klamra łukowa	!LO:TUP:a:problem=klamra łukowa, kropka zamiast numeru	!	!	!	!	!	!	!	!	!	!	!	!	!	!	!
8r	.	8r	24aa\L	24ccc\L	.	.	.	.	.	.	.	.	.	.	.	8r	8r	.	.
.	.	.	24gg\	24bb\	.	.	.	.	.	.	.	.	.	.	.	.	.	.	.
.	.	.	24ff\JJ	24aa\JJ	.	.	.	.	.	.	.	.	.	.	.	.	.	.	.
!	!	!	!LO:TX:t=P:problem=mixed beam	!LO:TX:t=P:problem=mixed beam	!	!	!	!	!	!	!	!	!	!	!	!	!	!	!
8C/	.	8C/	8ee\L	8gg\L	.	.	.	.	.	.	.	.	.	.	.	8e/	8cc\	4r	4r
!	!	!	!LO:TUP:a:problem=klamra łukowa	!LO:TUP:b:problem=klamra łukowa, kropka zamiast numeru	!	!	!	!	!	!	!	!	!	!	!	!	!	!	!
8r	.	8r	24c/L	24e/L	.	.	.	.	.	.	.	.	.	.	.	8r	8r	.	.
.	.	.	24d/	24f/	.	.	.	.	.	.	.	.	.	.	.	.	.	.	.
.	.	.	24e/JJ	24g/JJ	.	.	.	.	.	.	.	.	.	.	.	.	.	.	.
!	!	!	!LO:TUP:b:problem=klamra łukowa, kropka zamiast numeru	!LO:TUP:b:problem=klamra łukowa, kropka zamiast numeru	!	!	!	!	!	!	!	!	!	!	!	!	!	!	!
8r	.	8r	24f/LL	24a/LL	.	.	.	.	.	.	.	.	.	.	.	8r	8r	8r	8r
.	.	.	24g/	24b/	.	.	.	.	.	.	.	.	.	.	.	.	.	.	.
.	.	.	24a/JJ	24cc/JJ	.	.	.	.	.	.	.	.	.	.	.	.	.	.	.
!	!	!	!LO:TUP:a:problem=klamra łukowa, kropka zamiast numeru	!LO:TUP:a:problem=klamra łukowa, kropka zamiast numeru	!	!	!	!	!	!	!	!	!	!	!	!	!	!	!
*	*	*	*	*	*	*	*	*	*	*	*	*	*	*	*	*	*	*	*tuplet
!	!	!	!	!	!	!	!	!	!	!	!	!	!	!	!	!	!LO:TX:a:t=P:problem=W źródle następne dwa takty skreślone	!	!
!	!	!	!	!	!	!	!	!	!	!	!	!	!	!	!	!	!	!LO:TUP:a:problem=klamra łukowa	!LO:TUP:a:problem=klamra łukowa
8GG/	.	8GG/	24b\LL	24dd\LL	.	.	.	.	.	.	.	.	.	.	.	8g/	8dd\	24cc\LL	24dd\LL
.	.	.	24cc\	24ee\	.	.	.	.	.	.	.	.	.	.	.	.	.	24dd\	24ee\
.	.	.	24dd\JJ	24ff\JJ	.	.	.	.	.	.	.	.	.	.	.	.	.	24ee\JJ	24ff\JJ
!	!	!LO:LB:g=original	!	!	!	!	!	!	!	!	!	!	!	!	!	!LO:LB:g=original	!LO:LB:g=original	!LO:LB:g=original	!LO:LB:g=original
=9	=9	=9	=9	=9	=9	=9	=9	=9	=9	=9	=9	=9	=9	=9	=9	=9	=9	=9	=9
!	!	!	!	!	!	!	!	!	!	!	!	!	!	!	!	!	!	!	!LO:TX:a:t=P:4\right:problem
8C/	.	8C/	8cc\L	8ee\L	1r	.	1r	.	1r	.	1r	.	1r	.	1ryy	8g/	8ee\	4cc\	4ee\
!	!	!	!LO:TUP:a:problem=klamra łukowa, kropka zamiast numeru	!LO:TUP:a:problem=klamra łukowa, kropka zamiast numeru	!	!	!	!	!	!	!	!	!	!	!	!	!	!	!
8r	.	8r	24aa\L	24ccc\L	.	.	.	.	.	.	.	.	.	.	.	8r	8r	.	.
.	.	.	24gg\	24bb\	.	.	.	.	.	.	.	.	.	.	.	.	.	.	.
.	.	.	24ff\JJ	24aa\JJ	.	.	.	.	.	.	.	.	.	.	.	.	.	.	.
8C/	.	8C/	8ee\L	8gg\L	.	.	.	.	.	.	.	.	.	.	.	8cc\	8ee\	4r	4r
!	!	!	!LO:TUP:a:problem=klamra łukowa	!LO:TUP:a:problem=klamra łukowa, kropka zamiast numeru	!	!	!	!	!	!	!	!	!	!	!	!	!	!	!
8r	.	8r	24aa\L	24ccc\L	.	.	.	.	.	.	.	.	.	.	.	8r	8r	.	.
.	.	.	24gg\	24bb\	.	.	.	.	.	.	.	.	.	.	.	.	.	.	.
.	.	.	24ff\JJ	24aa\JJ	.	.	.	.	.	.	.	.	.	.	.	.	.	.	.
!	!	!	!LO:LB:g=original	!LO:LB:g=original	!	!	!	!	!	!	!	!	!	!	!	!	!	!	!
8c\L	.	8c\L	8ee\L	8gg\L	.	.	.	.	.	.	.	.	.	.	.	8cc\	8ee\	4r	4r
!	!	!	!LO:TUP:a:problem=klamra łukowa	!LO:TUP:a:problem=klamra łukowa, kropka zamiast numeru	!	!	!	!	!	!	!	!	!	!	!	!	!	!	!
8F\	.	8F\	24ff\L	24aa\L	.	.	.	.	.	.	.	.	.	.	.	8r	8r	.	.
.	.	.	24ee\	24gg\	.	.	.	.	.	.	.	.	.	.	.	.	.	.	.
.	.	.	24dd\JJ	24ff\JJ	.	.	.	.	.	.	.	.	.	.	.	.	.	.	.
!	!	!	!LO:TUP:a:problem=klamra łukowa	!LO:TUP:a:problem=klamra łukowa, kropka zamiast numeru	!	!	!	!	!	!	!	!	!	!	!	!	!	!	!
8G\	.	8G\	24cc\LL	24ee\LL	.	.	.	.	.	.	.	.	.	.	.	8r	8r	8r	8r
.	.	.	24dd\	24ff\	.	.	.	.	.	.	.	.	.	.	.	.	.	.	.
.	.	.	24ee\JJ	24gg\JJ	.	.	.	.	.	.	.	.	.	.	.	.	.	.	.
!LO:TX:a:Bi:t=Tutti	!	!	!	!	!	!	!	!	!	!	!	!	!	!	!	!	!	!	!
!	!	!	!LO:TUP:b:problem=klamra łukowa	!LO:TUP:a:problem=klamra łukowa, kropka zamiast numeru	!	!	!	!	!	!	!	!	!	!	!	!	!	!	!
!	!	!	!	!	!	!	!	!	!	!	!	!	!	!	!	!	!	!LO:TUP:a:problem=klamra łukowa	!LO:TUP:a:problem=klamra łukowa
8G\J	.	8G\J	24d/LL	24b\LL	.	.	.	.	.	.	.	.	.	.	.	8g/	8dd\	24b\LL	24b\LL
.	.	.	24e/	24cc\	.	.	.	.	.	.	.	.	.	.	.	.	.	24cc\	24cc\
.	.	.	24f/JJ	24dd\JJ	.	.	.	.	.	.	.	.	.	.	.	.	.	24dd\JJ	24dd\JJ
=10	=10	=10	=10	=10	=10-	=10-	=10	=10	=10	=10	=10	=10	=10	=10	=10	=10	=10	=10	=10
*	*	*	*^	*	*	*	*	*	*	*	*	*	*	*	*	*	*	*	*
!	!	!	!	!LO:TX:t=P:problem=mixed beam	!	!	!	!	!	!	!	!	!	!LO:TX:a:Bi:t=T[utti]&colon;	!	!	!	!	!	!
4C/	.	4C/	8cc/	8e/L	8cc\L	4C/	O	4G/	O	4e\	O	4cc\	O	4cc\	O	1ryy	4e/	4cc\	4cc\	4cc\
!	!	!	!	!LO:TUP:a:problem=klamra łukowa	!LO:TUP:a:problem=klamra łukowa, kropka zamiast numeru	!	!	!	!	!	!	!	!	!	!	!	!	!	!	!
.	.	.	24ryy	24ee\L	24ee\L	.	.	.	.	.	.	.	.	.	.	.	.	.	.	.
.	.	.	24ryy	24dd\	24dd\	.	.	.	.	.	.	.	.	.	.	.	.	.	.	.
.	.	.	24ryy	24cc\JJ	24cc\JJ	.	.	.	.	.	.	.	.	.	.	.	.	.	.	.
4D/	6	4D/	8b\L	4ryy	8b\L	4D/	su-	4F/	su-	4f\	su-	4b\	Su-	4b\	Su-	.	4r	4r	4b\	4b\
!	!	!	!LO:TUP:a:problem=klamra łukowa	!	!LO:TUP:a:problem=klamra łukowa, kropka zamiast numeru	!	!	!	!	!	!	!	!	!	!	!	!	!	!	!
.	.	.	24ff\L	.	24ff\L	.	.	.	.	.	.	.	.	.	.	.	.	.	.	.
.	.	.	24ee\	.	24ee\	.	.	.	.	.	.	.	.	.	.	.	.	.	.	.
.	.	.	24dd\JJ	.	24dd\JJ	.	.	.	.	.	.	.	.	.	.	.	.	.	.	.
8E\L	6	8E\L	16cc\LL	2ryy	16cc\LL	8E\	-pre-	8G/	-pre-	8e\	-pre-	8cc\	-pre-	8cc\	-pre-	.	4.g/	4.cc\	8cc\L	8cc\L
.	.	.	16a\	.	16g\	.	.	.	.	.	.	.	.	.	.	.	.	.	.	.
16D\L	.	16D\L	16b\	.	16b\	16D/LL	-mum	8G/	-mum	8g\	-mum	16b\LL	-mum	16b\LL	-mum	.	.	.	16b\L	16b\L
16C\JJ	.	16C\JJ	16cc\JJ	.	16cc\JJ	16C/JJ	.	.	.	.	.	16cc\JJ	.	16cc\JJ	.	.	.	.	16cc\JJ	16cc\JJ
8BB/L	.	8BB/L	16dd\LL	.	16dd\LL	8BB/	cae-	8B\	cae-	8g\	cae-	8dd\	Cae-	8dd\	Cae-	.	.	.	8dd\L	8dd\L
.	.	.	16g\	.	16g\	.	.	.	.	.	.	.	.	.	.	.	.	.	.	.
8GG/J	.	8GG/J	16dd\	.	16dd\	8GG/	-li	8d\	-li	8g\	-li	8ff\	-li	8ff\	-li	.	8g/	8dd\	8dd\J	8ff\J
.	.	.	16ff\JJ	.	16ff\JJ	.	.	.	.	.	.	.	.	.	.	.	.	.	.	.
!	!	!	!	!	!	!	!	!LO:LB:g=original	!	!	!	!LO:LB:g=original	!	!LO:LB:g=original	!	!	!	!	!	!
*	*	*	*v	*v	*	*	*	*	*	*	*	*	*	*	*	*	*	*	*	*
=11	=11	=11	=11	=11	=11	=11	=11	=11	=11	=11	=11	=11	=11	=11	=11	=11	=11	=11	=11
8C/L	.	8C/L	8ccT>\L	8eet>\L	8C/	Nu-	8c\	Nu-	8g\	nu-	8ee\	lu-	8ee\	Nu-	1ryy	8g/L	8ee\L	8cc\L	8ee\L
8GG/J	.	8GG/J	8b\J	8dd\J	8GG/	-men	8B\	-men	8g\	-men	8dd\	-men	8dd\	-men	.	8g/J	8dd\J	8b\J	8dd\J
!	!	!LO:N:vis=8	!	!	!	!	!	!	!	!	!	!	!	!	!	!	!	!	!
16GG/LL	.	16GG/LL	16G/LL	16G/LL	4r	.	4r	.	4r	.	4r	.	4r	.	.	4r	4r	4r	4r
32AA/L	.	32AA/L	32A/L	32A/L	.	.	.	.	.	.	.	.	.	.	.	.	.	.	.
32BB/	.	32BB/	32B/	32B/	.	.	.	.	.	.	.	.	.	.	.	.	.	.	.
32C/	.	32C/	(<32c/	32c/	.	.	.	.	.	.	.	.	.	.	.	.	.	.	.
32D/	.	32D/	32d/	32d/	.	.	.	.	.	.	.	.	.	.	.	.	.	.	.
32E/	.	32E/	32e/	32e/	.	.	.	.	.	.	.	.	.	.	.	.	.	.	.
!	!	!	!LO:TX:a:t=P:problem=W źródle '+' dopisany ołówkiem	!	!	!	!	!	!	!	!	!	!	!	!	!	!	!	!
32F#X/JJJ	.	32F#X/JJJ	32f#X/JJJ)	32f#X/JJJ	.	.	.	.	.	.	.	.	.	.	.	.	.	.	.
!	!	!	!LO:LB:g=original	!LO:LB:g=original	!LO:LB:g=original	!	!	!	!LO:LB:g=original	!	!	!	!	!	!	!	!	!	!
4G\	.	4G\	16g\LL	16g\LL	4G\	gra-	4B\	gra-	4g\	gra-	4dd\	gra-	4dd\	gra-	.	4G/	4g/	4b\	4dd\
.	.	.	16b\	16b\	.	.	.	.	.	.	.	.	.	.	.	.	.	.	.
.	.	.	16dd\	16dd\	.	.	.	.	.	.	.	.	.	.	.	.	.	.	.
.	.	.	16gg\JJ	16gg\JJ	.	.	.	.	.	.	.	.	.	.	.	.	.	.	.
4G\	6 4	4G\	16g\LL	16g\LL	4G\	-ti-	4c\	-ti-	4g\	-ti-	4ee\	-ti-	4ee\	-ti-	.	8.G/L	8.g/L	4cc\	4ee\
.	.	.	16cc\	16cc\	.	.	.	.	.	.	.	.	.	.	.	.	.	.	.
.	.	.	16cc\	16ee\	.	.	.	.	.	.	.	.	.	.	.	.	.	.	.
.	.	.	16ee\JJ	16gg\JJ	.	.	.	.	.	.	.	.	.	.	.	16G/Jk	16g/Jk	.	.
!LO:LB:g=original	!	!LO:LB:g=original	!	!	!	!	!	!	!	!	!	!	!	!	!	!	!	!	!
=12	=12	=12	=12	=12	=12	=12	=12	=12	=12	=12	=12	=12	=12	=12	=12	=12	=12	=12	=12
!LO:TX:t=P:problem=mixed beam	!	!LO:TX:t=P:problem=mixed beam	!	!	!	!	!	!	!	!	!	!	!	!	!	!	!	!	!
.	.	.	8qqee/	8qqgg/	.	.	.	.	.	.	.	.	.	.	.	.	.	.	.
8G\L	7 5	8G\L	8dd\L	8ff\L	8G\	-a-	8d\	-a-	8g\	-a-	8ff\	-a-	8ff\	-a-	1ryy	4G/	4g/	8dd\L	8ff\L
8G\	.	8G\	16cc\L	16ee\L	8G\	-rum	16c\LL	-rum	8g\	-rum	16ee\LL	-rum	16ee\LL	-rum	.	.	.	16cc\L	16ee\L
.	.	.	16dd\JJ	16ff\JJ	.	.	16d\JJ	.	.	.	16ff\JJ	.	16ff\JJ	.	.	.	.	16dd\JJ	16ff\JJ
!	!	!	!LO:TX:t=P:problem=mixed beam	!LO:TX:t=P:problem=mixed beam	!	!	!	!	!	!	!	!	!	!	!	!	!	!	!
8GG/	8 6	8GG/	16ee\LL	16gg\LL	8G\	prae-	8e\	prae-	8g\	prae-	8gg\	prae-	8gg\	prae-	.	8r	8r	8ee\L	8gg\L
.	.	.	16g/	16g/	.	.	.	.	.	.	.	.	.	.	.	.	.	.	.
8GG/J	7 5	8GG/J	16g/	16g/	8GG/	-be	8d\	-be	8g\	-be	8ff\	-be	8ff\	-be	.	8dd\	8ff\	8dd\	8ff\J
.	.	.	16dd\JJ	16ff\JJ	.	.	.	.	.	.	.	.	.	.	.	.	.	.	.
!	!	!	!	!	!	!	!	!	!	!	!	!	!	!	!	!	!	!	!LO:PB:g=original
!	!	!	!	!	!	!	!	!	!	!	!	!	!	!	!	!	!	!	!LO:TX:a:t=P:problem=w źródle po łamaniu strony all\right
8C/L	9 4	8C/L	8ddT>\L	8ffT>\L	8C/	lu-	8d\	lu-	8g\	lu-	8ff\	lu-	8ff\	lu-	.	8dd\L	8ff\L	8dd\	8ff\L
8C/J	8 3	8C/J	8cc\J	8ee\J	8C/	-men	8c\	-men	8g\	-men	8ee\	-men	8ee\	-men	.	8cc\J	8ee\J	8cc\J	8ee\J
!	!	!	!	!	!	!	!	!	!	!	!	!	!	!	!	!	!	!LO:TX:t=P:problem=od nuty 4cc do końca utworu all\right	!
!	!	!	!LO:TUP:a:problem=klamra łukowa	!LO:TUP:a:problem=klamra łukowa	!	!	!	!	!	!	!	!	!	!	!	!	!	!	!
8.C/L	.	8.C/L	24ccc\LL	24ccc\LL	8.C/	nos	8.c\	nos	8.g\	nos	8.ee\	nos	8.ee\	nos	.	4r	4r	4cc\	4ee\
.	.	.	24bb\	24bb\	.	.	.	.	.	.	.	.	.	.	.	.	.	.	.
.	.	.	24aa\JJ	24aa\	.	.	.	.	.	.	.	.	.	.	.	.	.	.	.
!	!	!	!LO:TUP:a:problem=klamra łukowa	!	!	!	!	!	!	!	!	!	!	!	!	!	!	!	!
.	.	.	24gg\LL	24gg\	.	.	.	.	.	.	.	.	.	.	.	.	.	.	.
.	.	.	24ff\	24ff\	.	.	.	.	.	.	.	.	.	.	.	.	.	.	.
16C/Jk	.	16C/Jk	.	.	16C/	ju-	16c\	ju-	16g\	ju-	16ee\	ju-	16ee\	ju-	.	.	.	.	.
.	.	.	24ee\JJ	24ee\JJ	.	.	.	.	.	.	.	.	.	.	.	.	.	.	.
!	!	!	!	!	!LO:LB:g=original	!	!LO:LB:g=original	!	!LO:LB:g=original	!	!LO:LB:g=original	!	!LO:LB:g=original	!	!	!	!	!	!
!	!	!	!	!	!	!	!	!	!	!	!	!	!	!	!	!LO:LB:g=original	!	!LO:PB:g=original	!
=13	=13	=13	=13	=13	=13	=13	=13	=13	=13	=13	=13	=13	=13	=13	=13	=13	=13	=13	=13
!	!	!	!LO:TUP:a:problem=klamra łukowa	!LO:TUP:a:problem=klamra łukowa	!	!	!	!	!	!	!	!	!	!	!	!	!	!	!
8F\L	6_ 5_	8F\L	24dd\LL	24dd\LL	8F\	-va-	8c\	-va-	8a\	-va-	8dd\	-va-	8dd\	-va-	1ryy	2r	2r	2cc\	1dd
.	.	.	24ee\	24ee\	.	.	.	.	.	.	.	.	.	.	.	.	.	.	.
.	.	.	24dd\JJ	24dd\	.	.	.	.	.	.	.	.	.	.	.	.	.	.	.
!	!	!	!LO:TUP:a:problem=klamra łukowa, kropka zamiast numeru	!	!	!	!	!	!	!	!	!	!	!	!	!	!	!	!
8F\J	.	8F\J	24ff\LL	24ff\	8F\	-re	8c\	-re	8a\	-re	8dd\	-re	8dd\	-re	.	.	.	.	.
.	.	.	24gg\	24gg\	.	.	.	.	.	.	.	.	.	.	.	.	.	.	.
.	.	.	24ff\JJ	24ff\JJ	.	.	.	.	.	.	.	.	.	.	.	.	.	.	.
!	!	!	!LO:TX:t=P:problem=mixed beam	!LO:TX:t=P:problem=mixed beam	!	!	!	!	!	!	!	!	!	!	!	!	!	!	!
!	!	!	!LO:TUP:b:problem=klamra łukowa	!LO:TUP:b:problem=klamra łukowa	!	!	!	!	!	!	!	!	!	!	!	!	!	!	!
8.F#X\L	.	8.F#X\L	24aa\LL	24aa\LL	8.F#X\	pro-	8.c\	pro-	8a\	pro-	8.dd\	pro-	8.dd\	pro-	.	.	.	.	.
.	.	.	24a/	24a/	.	.	.	.	.	.	.	.	.	.	.	.	.	.	.
.	.	.	24b/JJ	24b/	.	.	.	.	.	.	.	.	.	.	.	.	.	.	.
!	!	!	!LO:TUP:b:problem=klamra łukowa	!	!	!	!	!	!	!	!	!	!	!	!	!	!	!	!
.	.	.	24cc/LL	24cc/	.	.	.	.	8a\	-pe-	.	.	.	.	.	.	.	.	.
.	.	.	24b/	24b/	.	.	.	.	.	.	.	.	.	.	.	.	.	.	.
16F#\Jk	X X	16F#\Jk	.	.	16F#\	-pe-	16c\	-pe-	.	.	16dd\	-pe-	16dd\	-pe-	.	.	.	.	.
.	.	.	24a/JJ	24cc/JJ	.	.	.	.	.	.	.	.	.	.	.	.	.	.	.
!	!	!	!LO:LB:g=original	!LO:LB:g=original	!	!	!	!	!	!	!	!	!	!	!	!	!	!	!
!	!	!	!	!LO:TX:t=P:problem=mixed beam	!	!	!	!	!	!	!	!	!	!	!	!	!	!	!
4G\	.	4G\	16b/LL	16b\LL	4G\	-ra	4B\	-ra	4g\	-ra	4dd\	-ra	4dd\	-ra	.	4g/	4dd\	2b\	.
.	.	.	16G/	16G/	.	.	.	.	.	.	.	.	.	.	.	.	.	.	.
.	.	.	16B/	16B/	.	.	.	.	.	.	.	.	.	.	.	.	.	.	.
.	.	.	16d/JJ	16d/JJ	.	.	.	.	.	.	.	.	.	.	.	.	.	.	.
8.G\L	.	8.G\L	16g\LL	16g\LL	8.G\	ar-	8.B\	ar-	8.g\	ar-	8.dd\	ar-	8.dd\	ar-	.	4r	4r	.	.
.	.	.	16b\	16b\	.	.	.	.	.	.	.	.	.	.	.	.	.	.	.
.	.	.	16dd\	16dd\	.	.	.	.	.	.	.	.	.	.	.	.	.	.	.
16G\Jk	.	16G\Jk	16gg\JJ	16gg\JJ	16G\	-ma	16B\	-ma	16g\	-ma	16dd\	-ma	16dd\	-ma	.	.	.	.	.
!	!	!	!	!	!	!	!	!	!	!	!	!	!	!	!	!	!LO:LB:g=original	!	!
=14	=14	=14	=14	=14	=14	=14	=14	=14	=14	=14	=14	=14	=14	=14	=14	=14	=14	=14	=14
!	!	!	!	!	!	!	!	!	!	!	!	!	!	!	!	!LO:TX:a:Bi:t=1.	!	!	!
8G#X\L	6 5	8G#X\L	16bb\KL	16bb\KL	8G#X\	lu-	8B\	lu-	8e\	lu-	8dd\	lu-	8dd\	lu-	1ryy	1r	1r	2b/	2dd\
.	.	.	8dd\	8dd\	.	.	.	.	.	.	.	.	.	.	.	.	.	.	.
8B\	.	8B\	.	.	8B\	-cis	8B\	-cis	8e\	-cis	8dd\	-cis	8dd\	-cis	.	.	.	.	.
.	.	.	8dd\	8dd\	.	.	.	.	.	.	.	.	.	.	.	.	.	.	.
8G#\	.	8G#\	.	.	8G#\	in-	8B\	in-	8e\	in-	8dd\	in-	8dd\	in-	.	.	.	.	.
.	.	.	8bb\	8bb\	.	.	.	.	.	.	.	.	.	.	.	.	.	.	.
8E\J	.	8E\J	.	.	8E\	-du-	8B\	-du-	8e\	-du-	8dd\	-du-	8dd\	-du-	.	.	.	.	.
.	.	.	16dd\Jk	16dd\Jk	.	.	.	.	.	.	.	.	.	.	.	.	.	.	.
!	!	!LO:LB:g=original	!	!	!	!	!LO:LB:g=original	!	!LO:LB:g=original	!	!LO:LB:g=original	!	!LO:LB:g=original	!	!	!	!	!	!
!LO:TX:t=P:problem=mixed beam	!	!LO:TX:t=P:problem=mixed beam	!	!	!	!	!	!	!	!	!	!	!	!	!	!	!	!	!
8A\L	9 4	8A\L	8ddT>\L	(>8dd\L	8A\	-e-	8B\	-e-	8e\	-e-	8dd\	-e-	8dd\	-e-	.	.	.	8bt>/L	8dd\L
8AA/J	8 #	8AA/J	8cc#X\J	8cc#X\J)	8AA/	-mus	8A\	-mus	8e\	-mus	8cc#X\	-mus	8cc#X\	-mus	.	.	.	8a/J	8cc#X\J
.	.	.	.	16qqdd/	.	.	.	.	.	.	.	.	.	.	.	.	.	.	.
!	!	!	!	!	!LO:LB:g=original	!	!	!	!	!	!	!	!	!	!	!	!	!	!
8.A\L	.	8.A\L	(>32cc#\LLL	(>32cc#\LLL	8.A\	a-	8.A\	a-	8e\	a-	8.cc#\	a-	8.cc#\	a-	.	.	.	4a/	4cc#\
.	.	.	32b\	32b\	.	.	.	.	.	.	.	.	.	.	.	.	.	.	.
.	.	.	32cc#\	32cc#\	.	.	.	.	.	.	.	.	.	.	.	.	.	.	.
.	.	.	32dd\J)	32dd\J)	.	.	.	.	.	.	.	.	.	.	.	.	.	.	.
.	.	.	16cc#\	16cc#\	.	.	.	.	8e\	-la-	.	.	.	.	.	.	.	.	.
16A\Jk	.	16A\Jk	16cc#\JJ	16cc#\JJ	16A\	-la-	16A\	-la-	.	.	16cc#\	-la-	16cc#\	-la-	.	.	.	.	.
=15	=15	=15	=15	=15	=15	=15	=15	=15	=15	=15	=15	=15	=15	=15	=15	=15	=15	=15	=15
8F#X\L	6 5	8F#X\L	16aa\KL	16aa\KL	8F#X\	-cres	8A\	-cres	8d\	-cres	8ccn\	-cres	8ccn\	-cres	1ryy	2r	2r	2a/	2ccn\
.	.	.	8ccn\	8ccn\	.	.	.	.	.	.	.	.	.	.	.	.	.	.	.
8A\	n x	8A\	.	.	8A\	ab-	8A\	ab-	8d\	ab-	8cc\	ab-	8cc\	ab-	.	.	.	.	.
.	.	.	8cc\	8cc\	.	.	.	.	.	.	.	.	.	.	.	.	.	.	.
8F#\	.	8F#\	.	.	8F#\	-ji-	8A\	-ji-	8.d\	-ji-	8cc\	-ji-	8cc\	-ji-	.	.	.	.	.
.	.	.	8aa\	8aa\	.	.	.	.	.	.	.	.	.	.	.	.	.	.	.
8D\J	.	8D\J	.	.	8D/	-ci-	8A\	-ci-	.	.	8cc\	-ci-	8cc\	-ci-	.	.	.	.	.
.	.	.	16cc\Jk	16cc\Jk	.	.	.	.	16d\	-ci-	.	.	.	.	.	.	.	.	.
!LO:LB:g=original	!	!	!	!	!	!	!	!	!	!	!	!	!	!	!	!	!	!	!
!LO:TX:t=P:problem=mixed beam	!	!LO:TX:t=P:problem=mixed beam	!	!	!	!	!	!	!	!	!	!	!	!	!	!	!	!	!
8G\L	9 4	8G\L	(>8cc\L	8ccT>\L	8G\	-e-	8A\	-e-	8d\	-e-	8cc\	-e-	8cc\	-e-	.	4r	4r	8aT>/L	8ccT>\L
8GG/J	8 3	8GG/J	8b\J)	8b\J	8GG/	-mus	8G/	-mus	8d\	-mus	8b\	-mus	8b\	-mus	.	.	.	8g/J	8b\J
.	.	.	.	16qqcc/	.	.	.	.	.	.	.	.	.	.	.	.	.	.	.
8.G\L	.	8.G\L	(>32b\LLL	(>32b\LLL	8.G\	te-	8.G/	te-	8.d\	te-	8.b\	te-	8.b\	te-	.	8.dd\L	8.gg\L	4g/	4b\
.	.	.	32a\	32a\	.	.	.	.	.	.	.	.	.	.	.	.	.	.	.
.	.	.	32b\	32b\	.	.	.	.	.	.	.	.	.	.	.	.	.	.	.
.	.	.	32cc\J)	32cc\J)	.	.	.	.	.	.	.	.	.	.	.	.	.	.	.
.	.	.	16b\	16b\	.	.	.	.	.	.	.	.	.	.	.	.	.	.	.
16G\Jk	.	16G\Jk	16gg\JJ	16gg\JJ	16G\	-ne-	16G/	-ne-	16d\	-ne-	16b\	-ne-	16b\	-ne-	.	16dd\Jk	16gg\Jk	.	.
!	!	!	!LO:LB:g=original	!LO:LB:g=original	!LO:LB:g=original	!	!LO:LB:g=original	!	!LO:LB:g=original	!	!LO:LB:g=original	!	!LO:LB:g=original	!	!	!	!	!	!
=16	=16	=16	=16	=16	=16	=16	=16	=16	=16	=16	=16	=16	=16	=16	=16	=16	=16	=16	=16
8C/L	6 5	8C/L	16ee\LL	16ee\LL	8C/	-bra-	8G/	-bra-	8e\	-bra-	8a\	-bra-	8a\	-bra-	1ryy	8ee\L	8gg\	4.g/	2a/
.	.	.	16cc\	(>16cc\	.	.	.	.	.	.	.	.	.	.	.	.	.	.	.
8C/	.	8C/	(>16cc\	16cc\)	8C/	-rum	8G/	-rum	8e\	-rum	8a\	-rum	8a\	-rum	.	8ee\J	4gg\	.	.
.	.	.	16a\JJ)	16a\JJ	.	.	.	.	.	.	.	.	.	.	.	.	.	.	.
!	!	!	!LO:TX:t=P:problem=mixed beam	!LO:TX:t=P:problem=mixed beam	!	!	!	!	!	!	!	!	!	!	!	!	!	!	!
8D/	4 x	8D/	8d/L	8d/L	8.D/	o-	8G/	o-	8.d\	o-	8.a\	o-	8.a\	o-	.	8.dd\L	.	.	.
8DD/J	# x	8DD/J	8ff#X\J	8ff#X\J	.	.	8F#X/	-pe-	.	.	.	.	.	.	.	.	8ff#X\	8f#X/	.
.	.	.	.	.	16D/	-pe-	.	.	16d\	-pe-	16a\	-pe-	16a\	-pe-	.	16dd\Jk	.	.	.
4GG/	.	4GG/	32gg\LLL	32gg\LLL	4GG/	-ra	4G/	-ra	4d\	-ra	4g/	-ra	4g/	-ra	.	4dd\	4gg\	4g/	4g/
.	.	.	32ff#\	32ff#\	.	.	.	.	.	.	.	.	.	.	.	.	.	.	.
.	.	.	32ee\	(>32ee\	.	.	.	.	.	.	.	.	.	.	.	.	.	.	.
.	.	.	(>32dd\	32dd\	.	.	.	.	.	.	.	.	.	.	.	.	.	.	.
.	.	.	32cc\	32cc\	.	.	.	.	.	.	.	.	.	.	.	.	.	.	.
.	.	.	32b\	32b\	.	.	.	.	.	.	.	.	.	.	.	.	.	.	.
.	.	.	32a\	32a\)	.	.	.	.	.	.	.	.	.	.	.	.	.	.	.
.	.	.	32g\JJJ)	32g\JJJ	.	.	.	.	.	.	.	.	.	.	.	.	.	.	.
!	!	!	!LO:TX:t=P:problem=mixed beam	!LO:TX:t=P:problem=mixed beam	!	!	!	!	!	!	!	!	!	!	!	!	!	!	!
8.D/L	7 #	8.D/L	16d/LL	16d/LL	8.D/	te-	8.A/	te-	8.f#X\	te-	8.cc\	te-	8.cc\	te-	.	4r	4r	4a/	4cc\
.	.	.	16cc\	16cc\	.	.	.	.	.	.	.	.	.	.	.	.	.	.	.
.	.	.	16aa\	16aa\	.	.	.	.	.	.	.	.	.	.	.	.	.	.	.
16D/Jk	.	16D/Jk	16cc\JJ	16cc\JJ	16D/	-ne-	16A/	-ne-	16f#\	-ne-	16cc\	-ne-	16cc\	-ne-	.	.	.	.	.
!	!	!LO:LB:g=original	!	!	!	!	!	!	!	!	!	!	!	!	!	!	!	!	!LO:LB:g=original
=17	=17	=17	=17	=17	=17	=17	=17	=17	=17	=17	=17	=17	=17	=17	=17	=17	=17	=17	=17
!	!	!LO:TX:t=P:problem=mixed beam	!	!	!	!	!	!	!	!	!	!	!	!	!	!	!	!	!
8E/L	5\ x	8E\L	16.b\LL	16b\LL	8E\	-bra-	8G/	-bra-	8g\	-bra-	8b\	-bra-	8b\	-bra-	1ryy	8r	8r	4.g/	8b/L
.	.	.	.	16gg\JJ	.	.	.	.	.	.	.	.	.	.	.	.	.	.	.
.	.	.	32gg\JJk	.	.	.	.	.	.	.	.	.	.	.	.	.	.	.	.
!	!	!	!LO:TUP:a:problem=klamra łukowa	!LO:TUP:a:problem=klamra łukowa, kropka zamiast numeru	!	!	!	!	!	!	!	!	!	!	!	!	!	!	!
8C/	6 5	8C\	24ee\LL	24ee\LL	8C/	-rum	8G/	-rum	8e\	-rum	8a\	-rum	8a\	-rum	.	8ee\	4gg\	.	8a/J
.	.	.	24cc\	24cc\	.	.	.	.	.	.	.	.	.	.	.	.	.	.	.
.	.	.	24a\JJ	24a\JJ	.	.	.	.	.	.	.	.	.	.	.	.	.	.	.
!	!	!	!LO:TX:t=P:problem=mixed beam	!LO:TX:t=P:problem=mixed beam	!	!	!	!	!	!	!	!	!	!	!	!	!	!	!
8D/	4 x	8D\	8d/L	8d/L	8.D/	o-	8G/	o-	8.d\	o-	8.a\	o-	8.a\	o-	.	8.dd\L	.	.	4aT>/
8DD/J	# x	8DD/J	8ff#X\J	8ff#X\J	.	.	8F#X/	-pe-	.	.	.	.	.	.	.	.	8ff#X\	8f#X/	.
.	.	.	.	.	16D/	-pe-	.	.	16d\	-pe-	16a\	-pe-	16g/	-pe-	.	16dd\Jk	.	.	.
!	!	!	!	!	!LO:LB:g=original	!	!	!	!LO:LB:g=original	!	!	!	!	!	!	!	!	!	!
!	!	!	!	!LO:TX:t=P:problem=mixed beam	!	!	!	!	!	!	!	!	!	!	!	!	!	!	!
8GG/	.	8GG/	8g\L	8g/L	4GG/	-ra	4G/	-ra	4d\	-ra	4g/	-ra	4g/	-ra	.	4dd\	4gg\	4g/	4g/
!	!	!	!LO:TUP:a:problem=klamra łukowa	!LO:TUP:a:problem=klamra łukowa, kropka zamiast numeru	!	!	!	!	!	!	!	!	!	!	!	!	!	!	!
8r	.	8r	24ee\L	24gg\L	.	.	.	.	.	.	.	.	.	.	.	.	.	.	.
.	.	.	24dd\	24ff#\	.	.	.	.	.	.	.	.	.	.	.	.	.	.	.
.	.	.	24cc\JJ	24ee\JJ	.	.	.	.	.	.	.	.	.	.	.	.	.	.	.
8GG/	.	8GG/	8b\L	8dd\L	4r	.	4r	.	4r	.	4r	.	4r	.	.	4r	4r	4r	4r
!	!	!	!LO:TUP:a:problem=klamra łukowa	!LO:TUP:a:problem=klamra łukowa, kropka zamiast numeru	!	!	!	!	!	!	!	!	!	!	!	!	!	!	!
8r	.	8r	24ee\L	24gg\L	.	.	.	.	.	.	.	.	.	.	.	.	.	.	.
.	.	.	24dd\	24ff#\	.	.	.	.	.	.	.	.	.	.	.	.	.	.	.
.	.	.	24cc\JJ	24ee\JJ	.	.	.	.	.	.	.	.	.	.	.	.	.	.	.
!	!	!	!LO:LB:g=original	!LO:LB:g=original	!	!	!LO:LB:g=original	!	!	!	!LO:LB:g=original	!	!LO:LB:g=original	!	!	!	!	!	!
!	!	!	!	!	!	!	!	!	!	!	!	!	!	!	!	!LO:LB:g=original	!	!LO:LB:g=original	!
=	=	=	=	=	=	=	=	=	=	=	=	=	=	=	=	=	=	=	=
!	!	!	!	!	!	!	!	!	!	!	!	!	!	!	!	!LO:SIC:s=8dd:v	!	!	!
8GG/	.	8GG/	8b\L	8dd\L	1r	.	1r	.	1r	.	1r	.	1r	.	1ryy	8ee\	8gg\	4r	4r
!	!	!	!LO:TUP:a:problem=klamra łukowa	!LO:TUP:a:problem=klamra łukowa, kropka zamiast numeru	!	!	!	!	!	!	!	!	!	!	!	!	!	!	!
8r	.	8r	24g\L	24b\L	.	.	.	.	.	.	.	.	.	.	.	8r	8r	.	.
.	.	.	24a\	24cc\	.	.	.	.	.	.	.	.	.	.	.	.	.	.	.
.	.	.	24b\JJ	24dd\JJ	.	.	.	.	.	.	.	.	.	.	.	.	.	.	.
!	!	!	!LO:TUP:a:problem=klamra łukowa	!LO:TUP:a:problem=klamra łukowa, kropka zamiast numeru	!	!	!	!	!	!	!	!	!	!	!	!	!	!	!
8r	.	8r	24cc\LL	24ee\LL	.	.	.	.	.	.	.	.	.	.	.	8r	8r	8r	8r
.	.	.	24dd\	24ff#X\	.	.	.	.	.	.	.	.	.	.	.	.	.	.	.
.	.	.	24ee\JJ	24gg\JJ	.	.	.	.	.	.	.	.	.	.	.	.	.	.	.
!	!	!	!LO:TUP:a:problem=klamra łukowa	!LO:TUP:a:problem=klamra łukowa, kropka zamiast numeru	!	!	!	!	!	!	!	!	!	!	!	!	!	!LO:TUP:a:problem=klamra łukowa, kropka zamiast numeru	!LO:TUP:a:problem=klamra łukowa
!	!	!	!	!	!	!	!	!	!	!	!	!	!	!	!	!	!	!LO:TUP:a:problem=klamra łukowa	!
8D\	.	8D/	24ff#X\LL	24aa\LL	.	.	.	.	.	.	.	.	.	.	.	8dd\	8ff#X\	24ff#X\LL	24aa\LL
.	.	.	24gg\	24bb\	.	.	.	.	.	.	.	.	.	.	.	.	.	24gg\	24bb\
.	.	.	24aa\JJ	24ccc\JJ	.	.	.	.	.	.	.	.	.	.	.	.	.	24aa\JJ	24ccc\JJ
8G\	.	8G\	8gg\L	16bb\LL	.	.	.	.	.	.	.	.	.	.	.	2r	8gg\	4gg\	4bb\
.	.	.	.	16gg\	.	.	.	.	.	.	.	.	.	.	.	.	.	.	.
!	!	!	!LO:TUP:a:problem=klamra łukowa	!	!	!	!	!	!	!	!	!	!	!	!	!	!	!	!
8r	.	8r	24ee\L	16ff#X\	.	.	.	.	.	.	.	.	.	.	.	.	8r	.	.
.	.	.	24dd\	.	.	.	.	.	.	.	.	.	.	.	.	.	.	.	.
.	.	.	.	16ee\JJ	.	.	.	.	.	.	.	.	.	.	.	.	.	.	.
!	!	!	!LO:TX:a:t=P:problem=w źródle 3 nuty skreślone przez skryptora	!	!	!	!	!	!	!	!	!	!	!	!	!	!	!	!
.	.	.	24cc\JJ	.	.	.	.	.	.	.	.	.	.	.	.	.	.	.	.
8G\	.	8G\	8b\L	8dd\L	.	.	.	.	.	.	.	.	.	.	.	.	4r	4r	4r
!	!	!	!LO:TUP:a:problem=klamra łukowa	!LO:TUP:a:problem=klamra łukowa, kropka zamiast numeru	!	!	!	!	!	!	!	!	!	!	!	!	!	!	!
8r	.	8r	24ee\L	24gg\L	.	.	.	.	.	.	.	.	.	.	.	.	.	.	.
.	.	.	24dd\	24ff#X\	.	.	.	.	.	.	.	.	.	.	.	.	.	.	.
.	.	.	24cc\JJ	24ee\JJ	.	.	.	.	.	.	.	.	.	.	.	.	.	.	.
!LO:TX:t=P:problem=przepełniona miara taktu - zbędna powtórka ósemki	!	!LO:TX:t=P:problem=zbędna powtórka w org	!LO:TX:t=P:problem=zbędna powtórka w org	!LO:TX:t=P:problem=zbędna powtórka w org	!LO:TX:t=P:problem=zbędna powtórka w org	!	!LO:TX:t=P:problem=zbędna powtórka w org	!	!LO:TX:t=P:problem=zbędna powtórka w org	!	!LO:TX:t=P:problem=zbędna powtórka w org	!	!LO:TX:t=P:problem=zbędna powtórka w org	!	!LO:TX:t=P:problem=zbędna powtórka w org	!LO:TX:t=P:problem=zbędna powtórka w org	!LO:TX:t=P:problem=zbędna powtórka w org	!LO:TX:t=P:problem=zbędna powtórka w org	!LO:TX:t=P:problem=zbędna powtórka w org
8G\	.	8ryy	8ryy	8ryy	8ryy	.	8ryy	.	8ryy	.	8ryy	.	8ryy	.	8ryy	8ryy	8ryy	8ryy	8ryy
!LO:LB:g=original	!	!	!	!	!	!	!	!	!	!	!	!	!	!	!	!	!LO:LB:g=original	!	!
=18	=18	=18	=18	=18	=18	=18	=18	=18	=18	=18	=18	=18	=18	=18	=18	=18	=18	=18	=18
8G\L	.	8G\L	8b/L	8dd\L	2r	.	2r	.	2r	.	2r	.	2r	.	1ryy	8dd\	8gg\	4r	4r
!	!	!	!LO:TUP:b:problem=klamra łukowa	!LO:TUP:a:problem=klamra łukowa, kropka zamiast numeru	!	!	!	!	!	!	!	!	!	!	!	!	!	!	!
8C\	.	8C\	24cc/L	24ee\L	.	.	.	.	.	.	.	.	.	.	.	8r	8r	.	.
.	.	.	24b/	24dd\	.	.	.	.	.	.	.	.	.	.	.	.	.	.	.
.	.	.	24a/JJ	24cc\JJ	.	.	.	.	.	.	.	.	.	.	.	.	.	.	.
!	!	!	!LO:TUP:b:problem=klamra łukowa	!LO:TUP:a:problem=klamra łukowa, kropka zamiast numeru	!	!	!	!	!	!	!	!	!	!	!	!	!	!	!
8D\	6 4	8D\	24g/LL	24b\LL	.	.	.	.	.	.	.	.	.	.	.	8r	8r	8r	8r
.	.	.	24a/	24cc\	.	.	.	.	.	.	.	.	.	.	.	.	.	.	.
.	.	.	24b/JJ	24dd\JJ	.	.	.	.	.	.	.	.	.	.	.	.	.	.	.
!	!	!	!LO:TUP:b:problem=klamra łukowa	!LO:TUP:b:problem=klamra łukowa, kropka zamiast numeru	!	!	!	!	!	!	!	!	!	!	!	!	!	!	!
!	!	!	!	!	!	!	!	!	!	!	!	!	!	!	!	!	!	!LO:TUP:b:problem=klamra łukowa	!LO:TUP:b:problem=klamra łukowa
8D\J	5 #	8D\J	24A/LL	24f#X/LL	.	.	.	.	.	.	.	.	.	.	.	8dd\	8ff#X\	24f#X/LL	24f#X/LL
.	.	.	24B/	24g/	.	.	.	.	.	.	.	.	.	.	.	.	.	24g/	24g/
.	.	.	24c/JJ	24a/JJ	.	.	.	.	.	.	.	.	.	.	.	.	.	24a/JJ	24a/JJ
!	!	!	!	!LO:LB:g=original	!	!	!	!	!	!	!	!	!	!	!	!	!	!	!
!	!	!LO:TX:t=P:4\right:problem	!	!	!	!	!	!	!	!	!	!	!	!	!	!	!	!	!
4G\	.	4G\	8B/L	8g/L	4G\	o	4d\	O	4g\	O	4g/	O	4g/	O	.	4dd\	4gg\	4g/	4g/
!	!	!	!LO:TUP:b:problem=klamra łukowa	!LO:TUP:b:problem=klamra łukowa, kropka zamiast numeru	!	!	!	!	!	!	!	!	!	!	!	!	!	!	!
.	.	.	24b/L	24b/L	.	.	.	.	.	.	.	.	.	.	.	.	.	.	.
.	.	.	24a/	24a/	.	.	.	.	.	.	.	.	.	.	.	.	.	.	.
.	.	.	24g/JJ	24g/JJ	.	.	.	.	.	.	.	.	.	.	.	.	.	.	.
4D/	# x	4D\	8aL 8d/	8aL 8d/	4D\	su-	4d\	su-	4f#X\	su-	4a\	su-	4a\	Su-	.	8.dd\L	4ff#X\	4a/	4a/
!	!	!	!LO:TUP:b:problem=klamra łukowa	!LO:TUP:b:problem=klamra łukowa, kropka zamiast numeru	!	!	!	!	!	!	!	!	!	!	!	!	!	!	!
.	.	.	24cc/L	24cc/L	.	.	.	.	.	.	.	.	.	.	.	.	.	.	.
.	.	.	24b/	24b/	.	.	.	.	.	.	.	.	.	.	.	.	.	.	.
.	.	.	.	.	.	.	.	.	.	.	.	.	.	.	.	16dd\Jk	.	.	.
!	!	!	!LO:TX:a:t=P:problem=w źródle brak kreski taktowej	!	!	!	!	!	!	!	!	!	!	!	!	!	!	!	!
.	.	.	24a/JJ	24a/JJ	.	.	.	.	.	.	.	.	.	.	.	.	.	.	.
!	!	!LO:LB:g=original	!LO:LB:g=original	!	!	!	!	!	!	!	!	!	!	!	!	!	!	!	!
=19	=19	=19	=19-	=19	=19	=19	=19	=19	=19	=19	=19	=19	=19	=19	=19	=19	=19	=19	=19
!	!	!LO:TX:a:t=P:problem=W źrodle w następnych 4 taktach wszystkie caudy po prawej stronie	!	!	!	!	!	!	!	!	!	!	!	!	!	!	!	!	!
8G\L	.	8G\L	16b\LL	(>16b\LL	8G\	-pre-	8d\	-pre-	8g\	-pre-	8b\	-pre-	8b\	-pre-	1ryy	4dd\	4.gg\	8b/L	8b/L
.	.	.	16gg\	16gg\)	.	.	.	.	.	.	.	.	.	.	.	.	.	.	.
16F#X\L	.	16F#X\L	16a\	(>16a\	16F#X\LL	-mum	8d\	-mum	8g\	-mum	16a\LL	-mum	16a\LL	-mum	.	.	.	16a/L	16a/L
16G\JJ	.	16G\JJ	16b\JJ	16b\JJ)	16G\JJ	.	.	.	.	.	16b\JJ	.	16b\JJ	.	.	.	.	16b/JJ	16b/JJ
!	!	!	!LO:TUP:a:problem=klamra łukowa, kropka zamiast numeru	!LO:TUP:a:problem=klamra łukowa	!	!	!	!	!	!	!	!	!	!	!	!	!	!	!
8A\L	.	8A\L	24cc\LL	24cc\LL	8A\	cae-	8c\	cae-	8g\	cae-	8cc\	Cae-	8cc\	Cae-	.	8cc\L	.	8cc\L	8cc\L
.	.	.	24b\	24b\	.	.	.	.	.	.	.	.	.	.	.	.	.	.	.
.	.	.	24cc\	24cc\	.	.	.	.	.	.	.	.	.	.	.	.	.	.	.
8D\J	.	8D\J	16aa\	16aa\	8D\	-li	8d\	-li	8f#X\	-li	8cc\	-li	8cc\	-li	.	8dd\J	8ff#X\	8cc\J	8cc\J
.	.	.	16cc\JJ	16cc\JJ	.	.	.	.	.	.	.	.	.	.	.	.	.	.	.
!	!	!	!	!	!LO:LB:g=original	!	!	!	!LO:LB:g=original	!	!	!	!	!	!	!	!	!	!LO:LB:g=original
!	!	!LO:TX:t=P:problem=mixed beam	!	!	!	!	!	!	!	!	!	!	!	!	!	!	!	!	!
8G\L	.	8G\L	8b/L	8bt>/L	8G\	Nu-	8d\	Nu-	8g\	nu-	8b\	nu-	8b\	Nu-	.	8dd\L	8gg\L	8b\L	8b/L
8D\J	.	8GG/J	8a/J	8a/J	8D\	-men	8d\	-men	8f#X\	-men	8a\	-men	8a\	-men	.	8dd\J	8ff#\J	8a\J	8a/J
!	!	!LO:TUP:a:problem=klamra łukowa, kropka zamiast numeru	!	!LO:TUP:a:problem=klamra łukowa	!	!	!	!	!	!	!	!	!	!	!	!	!	!	!
!LO:TUP:a:problem=klamra łukowa	!	!	!LO:TUP:b:problem=klamra łukowa	!	!	!	!	!	!	!	!	!	!	!	!	!	!	!	!
!	!	!LO:TUP:a:problem=klamra łukowa	!	!	!	!	!	!	!	!	!	!	!	!	!	!	!	!	!
24d\LL	.	24d\LL	24dd/LL	24dd\LL	4r	.	4r	.	4r	.	4r	.	4r	.	.	4r	4r	4r	4r
24A\	.	24A\	24a/	24a\	.	.	.	.	.	.	.	.	.	.	.	.	.	.	.
24G\JJ	.	24G\JJ	24g/JJ	24g\	.	.	.	.	.	.	.	.	.	.	.	.	.	.	.
!	!	!LO:TUP:a:problem=klamra łukowa, kropka zamiast numeru	!	!	!	!	!	!	!	!	!	!	!	!	!	!	!	!	!
!LO:TUP:a:problem=klamra łukowa	!	!	!LO:TUP:b:problem=klamra łukowa	!	!	!	!	!	!	!	!	!	!	!	!	!	!	!	!
!	!	!LO:TUP:a:problem=klamra łukowa	!	!	!	!	!	!	!	!	!	!	!	!	!	!	!	!	!
24F#X\LL	.	24F#X\LL	24f#X/LL	24f#X\	.	.	.	.	.	.	.	.	.	.	.	.	.	.	.
24G\	.	24G\	24g/	24g\	.	.	.	.	.	.	.	.	.	.	.	.	.	.	.
!	!	!	!	!LO:TX:a:t=P:problem=w źrodle partia kontynuowana na stronie 13	!	!	!	!	!	!	!	!	!	!	!	!	!	!	!
24A\JJ	.	24A\JJ	24a/JJ	24a\JJ	.	.	.	.	.	.	.	.	.	.	.	.	.	.	.
!	!	!	!	!LO:PB:g=original	!	!	!LO:LB:g=original	!	!	!	!LO:LB:g=original	!	!	!	!	!	!	!	!
!	!	!	!	!	!	!	!	!	!	!	!	!	!	!	!	!	!	!LO:LB:g=original	!
=20	=20	=20	=20	=20	=20	=20	=20	=20	=20	=20	=20	=20	=20	=20	=20	=20	=20	=20	=20
4D/	# x	4D/	16d/LL	16d/LL	4D\	gra-	4d\	gra-	4f#X\	gra-	4a\	gra-	4a\	gra-	1ryy	1r	1r	4f#X/	4a/
.	.	.	16f#X/	16f#X/	.	.	.	.	.	.	.	.	.	.	.	.	.	.	.
.	.	.	16a/	16a/	.	.	.	.	.	.	.	.	.	.	.	.	.	.	.
.	.	.	16dd/JJ	16dd/JJ	.	.	.	.	.	.	.	.	.	.	.	.	.	.	.
4D/	6 4	4D/	16d/LL	16d/LL	4D\	-ti-	4d\	-ti-	4g\	-ti-	4b\	-ti-	4b\	-ti-	.	.	.	4g/	4b/
.	.	.	(<16g/	16g/	.	.	.	.	.	.	.	.	.	.	.	.	.	.	.
.	.	.	16g/)	16b/	.	.	.	.	.	.	.	.	.	.	.	.	.	.	.
.	.	.	16b/JJ	16dd/JJ	.	.	.	.	.	.	.	.	.	.	.	.	.	.	.
.	.	.	8qqb/	.	.	.	.	.	.	.	.	.	.	.	.	.	.	.	.
!	!	!	!	!	!	!	!	!	!	!	!	!	!LO:LB:g=original	!	!	!	!	!	!
8D\L	7 5	8D/L	8a/L	8cc\L	8D\	-a-	8d\	-a-	8a\	-a-	8cc\	-a-	8cc\	-a-	.	.	.	8a/L	8cc\L
8D\	.	8D/	16g/L	16b\L	8D\	-rum	8d\	-rum	16g\LL	-rum	16b\LL	-rum	16b\LL	-rum	.	.	.	16g/L	16b\L
.	.	.	16a/JJ	16cc\JJ	.	.	.	.	16a\JJ	.	16cc\JJ	.	16cc\JJ	.	.	.	.	16a/JJ	16cc\JJ
!	!	!	!	!LO:TX:t=P:problem=mixed beam	!	!	!	!	!	!	!	!	!	!	!	!	!	!	!
8D\	8 6	8D/	16b/LL	16dd\LL	8D\	prae-	8d\	prae-	8b\	prae-	8dd\	prae-	8dd\	prae-	.	.	.	8b/L	8dd\L
.	.	.	16d/	16d/	.	.	.	.	.	.	.	.	.	.	.	.	.	.	.
8D\J	7 5	8D/J	16d/	16d/	8D\	-be	8d\	-be	8a\	-be	8cc\	-be	8cc\	-be	.	.	.	8a/J	8cc\J
.	.	.	16a/JJ	16cc\JJ	.	.	.	.	.	.	.	.	.	.	.	.	.	.	.
!	!	!	!	!	!LO:LB:g=original	!	!	!	!LO:LB:g=original	!	!	!	!	!	!	!	!	!	!
=21	=21	=21	=21	=21	=21	=21	=21	=21	=21	=21	=21	=21	=21	=21	=21	=21	=21	=21	=21
8G\L	9 4 x	8G\L	8a/L	8ccT>\L	8G\	lu-	8d\	lu-	8a\	lu-	8cc\	lu-	8cc\	lu-	1ryy	4g/	4dd\	8a/L	8cc\L
8G\	8 3 x	8G\	8g/J	8b\J	8G\	-men	8d\	-men	8g\	-men	8b\	-men	8b\	-men	.	.	.	8g/J	8b\J
8.G\	.	8.G\	16dd/LL	16dd/LL	8.G\	nos	8.B\	nos	8g\	nos	8dd\	nos	8.dd\	nos	.	4r	4r	2b/	2dd\
.	.	.	16b/	16b/	.	.	.	.	.	.	.	.	.	.	.	.	.	.	.
.	.	.	16g/	16g/	.	.	.	.	8g\	ju-	8dd\	ju-	.	.	.	.	.	.	.
!	!	!	!LO:TX:a:t=P:problem=w źrodle partia kontynuowana na stronie 21	!	!	!	!	!	!	!	!	!	!	!	!	!	!	!	!
16G\Jk	.	16G\Jk	16d/JJ	16d/JJ	16G\	ju-	16B\	ju-	.	.	.	.	16dd\	ju-	.	.	.	.	.
!LO:LB:g=original	!	!LO:LB:g=original	!LO:PB:g=original	!	!	!	!LO:LB:g=original	!	!	!	!	!	!	!	!	!	!	!	!
8F\L	6 4 2	8F\L	16dd/LL	16dd/LL	8Fn\	-va-	8B\	-va-	8g\	-va-	8dd\	-va-	8dd\	-va-	.	4r	4r	.	.
.	.	.	16b/	16b/	.	.	.	.	.	.	.	.	.	.	.	.	.	.	.
8F\	.	8F\	16g/	16g/	8F\	-re	8B\	-re	8g\	-re	8dd\	-re	8dd\	-re	.	.	.	.	.
.	.	.	16d/JJ	16d/JJ	.	.	.	.	.	.	.	.	.	.	.	.	.	.	.
!	!	!	!	!	!	!	!	!	!	!	!LO:LB:g=original	!	!	!	!	!	!	!	!
8.E\	7 # x	8.E\	16dd/LL	16dd/LL	8.E\	pro-	8.B\	pro-	8.g#X\	pro-	8.dd\	pro-	8.dd\	pro-	.	8.e/L	8.dd\L	4b/	4dd\
.	.	.	16b/	16b/	.	.	.	.	.	.	.	.	.	.	.	.	.	.	.
.	.	.	16g#X/	16g#X/	.	.	.	.	.	.	.	.	.	.	.	.	.	.	.
16E\Jk	.	16E\Jk	16e/JJ	16e/JJ	16E\	-pe-	16B\	-pe-	16g#\	-pe-	16dd\	-pe-	16dd\	-pe-	.	16e/Jk	16dd\Jk	.	.
!	!	!	!	!	!	!	!	!	!	!	!	!	!LO:LB:g=original	!	!	!	!	!	!
!	!	!	!	!	!	!	!	!	!	!	!	!	!	!	!	!LO:LB:g=original	!	!	!
=22	=22	=22	=22	=22	=22	=22	=22	=22	=22	=22	=22	=22	=22	=22	=22	=22	=22	=22	=22
!	!	!	!LO:TUP:a:problem=klamra łukowa	!LO:TUP:b:problem=klamra łukowa	!	!	!	!	!	!	!	!	!	!	!	!	!	!	!
4A\	.	4A\	24cc\LL	24cc/LL	4A\	-ra	4c\	-ra	4a\	-ra	4cc\	-ra	4cc\	-ra	1ryy	4e/	4cc\	4a/	4cc\
.	.	.	24b\	24b/	.	.	.	.	.	.	.	.	.	.	.	.	.	.	.
.	.	.	24a\JJ	24a/JJ	.	.	.	.	.	.	.	.	.	.	.	.	.	.	.
.	.	.	16e/LL	16e/LL	.	.	.	.	.	.	.	.	.	.	.	.	.	.	.
.	.	.	16c/JJ	16c/JJ	.	.	.	.	.	.	.	.	.	.	.	.	.	.	.
8A\L	.	8A\L	16A/LL	16A/LL	8A\	ar-	8.c\	ar-	8.a\	ar-	8ee\	ar-	8ee\	ar-	.	4r	4r	2cc\	4ee\
.	.	.	16a/	16a/	.	.	.	.	.	.	.	.	.	.	.	.	.	.	.
8A\J	.	8A\J	16cc/	16cc/	8A\	-ma	.	.	.	.	8ee\	-ma	8ee\	-ma	.	.	.	.	.
.	.	.	16ee/JJ	16ee/JJ	.	.	16c\	-ma	16a\	-ma	.	.	.	.	.	.	.	.	.
!	!	!	!	!LO:LB:g=original	!LO:LB:g=original	!	!	!	!LO:LB:g=original	!	!	!	!	!	!	!	!	!	!
8.D/L	7	8.D/L	(>32ff\LLL	(>32ff\LLL	8D\	lu-	8c\	lu-	8a\	lu-	8ff\	lu-	8ff\	lu-	.	2r	2r	.	2ff\
.	.	.	32ee\	32ee\	.	.	.	.	.	.	.	.	.	.	.	.	.	.	.
.	.	.	32ff\	32ff\	.	.	.	.	.	.	.	.	.	.	.	.	.	.	.
.	.	.	32gg\J)	32gg\J)	.	.	.	.	.	.	.	.	.	.	.	.	.	.	.
.	.	.	16aa\	16aa\	8D\	-cis	8c\	-cis	8a\	-cis	8ff\	-cis	8ff\	-cis	.	.	.	.	.
16D/Jk	.	16D/Jk	16aa\JJ	16aa\JJ	.	.	.	.	.	.	.	.	.	.	.	.	.	.	.
8.G\L	7	8.G\L	32bb\LLL	32bb\LLL	8.G\	in	8.B\	in	8.gn\	in	8.ff\	in	8.ff\	in	.	.	.	[<4b/	.
.	.	.	(>32aa\	(>32aa\	.	.	.	.	.	.	.	.	.	.	.	.	.	.	.
.	.	.	32bb\	32bb\	.	.	.	.	.	.	.	.	.	.	.	.	.	.	.
.	.	.	32ccc\J)	32ccc\J)	.	.	.	.	.	.	.	.	.	.	.	.	.	.	.
.	.	.	16ddd\	16ddd\	.	.	.	.	.	.	.	.	.	.	.	.	.	.	.
16G\Jk	.	16G\Jk	16ddd\JJ	16ddd\JJ	16G\	du-	16B\	du-	16g\	du-	16ff\	du-	16ff\	du-	.	.	.	.	.
!	!	!	!	!	!	!	!LO:LB:g=original	!	!	!	!	!	!	!	!	!	!	!	!
=23	=23	=23	=23	=23	=23	=23	=23	=23	=23	=23	=23	=23	=23	=23	=23	=23	=23	=23	=23
8.C/L	7 x	8.C/L	(>32ee\LLL	32ee\LLL	8C/	-e-	8B\	-e-	8g\	-e-	8ee\	-e-	8ee\	-e-	1ryy	2r	2r	4b/]	2ee\
.	.	.	32dd\	(>32dd\	.	.	.	.	.	.	.	.	.	.	.	.	.	.	.
.	.	.	32ee\	32ee\	.	.	.	.	.	.	.	.	.	.	.	.	.	.	.
.	.	.	32ff\J)	32ff\J)	.	.	.	.	.	.	.	.	.	.	.	.	.	.	.
.	.	.	16gg\	16gg\	8C/	-mus	8B\	-mus	8g\	-mus	8ee\	-mus	8ee\	-mus	.	.	.	.	.
16C/Jk	.	16C/Jk	16gg\JJ	16gg\JJ	.	.	.	.	.	.	.	.	.	.	.	.	.	.	.
!	!	!	!	!	!	!	!	!	!	!	!LO:LB:g=original	!	!	!	!	!	!	!	!
8.F\L	7 x	8.F\L	(>32aa\LLL	32aa\LLL	8.F\	a-	8.A/	a-	8.f\	a-	8.ee\	a-	8.ee\	a-	.	.	.	2a/	.
.	.	.	32gg\	(>32gg\	.	.	.	.	.	.	.	.	.	.	.	.	.	.	.
.	.	.	32aa\	32aa\)	.	.	.	.	.	.	.	.	.	.	.	.	.	.	.
.	.	.	32bb\J)	32bb\J	.	.	.	.	.	.	.	.	.	.	.	.	.	.	.
.	.	.	16ccc\	16ccc\	.	.	.	.	.	.	.	.	.	.	.	.	.	.	.
16F\Jk	.	16F\Jk	16ccc\JJ	16ccc\JJ	16F\	-la-	16A/	-la-	16f\	-la-	16ee\	-la-	16ee\	-la-	.	.	.	.	.
!	!	!	!LO:LB:g=original	!	!	!	!	!	!	!	!	!	!	!	!	!	!	!	!
8.BB/L	7 x	8.BB/L	32dd\LLL	32dd\LLL	8BB/	-cres	8A/	-cres	8f\	-cres	8dd\	-cres	8dd\	-cres	.	4r	4r	.	2dd\
.	.	.	(>32cc\	(>32cc\	.	.	.	.	.	.	.	.	.	.	.	.	.	.	.
.	.	.	32dd\	32dd\	.	.	.	.	.	.	.	.	.	.	.	.	.	.	.
.	.	.	32ee\J)	32ee\J)	.	.	.	.	.	.	.	.	.	.	.	.	.	.	.
.	.	.	16ff\	16ff\	8BB/	ab-	8A/	ab-	8f\	ab-	8dd\	ab-	8dd\	ab-	.	.	.	.	.
16BB/Jk	.	16BB/Jk	16ff\JJ	16ff\JJ	.	.	.	.	.	.	.	.	.	.	.	.	.	.	.
8.E\L	7 #	8.E\L	32gg#X\LLL	32gg#X\LLL	8E\	-ji-	8G#X/	-ji-	8e\	-ji-	8dd\	-ji-	8dd\	-ji-	.	8.e/L	8.dd\L	8g#X/L	.
.	.	.	(>32ff#X\	(>32ff#X\	.	.	.	.	.	.	.	.	.	.	.	.	.	.	.
.	.	.	32gg#\	32gg#\	.	.	.	.	.	.	.	.	.	.	.	.	.	.	.
.	.	.	32aa\J)	32aa\J)	.	.	.	.	.	.	.	.	.	.	.	.	.	.	.
.	.	.	(>16bb\	16bb\	8E\	-ci-	8B\	-ci-	8e\	-ci-	8dd\	-ci-	8dd\	-ci-	.	.	.	8e/J	.
16E\Jk	.	16E\Jk	16dd\JJ)	16dd\JJ	.	.	.	.	.	.	.	.	.	.	.	16e/Jk	16dd\Jk	.	.
!	!	!LO:LB:g=original	!	!LO:LB:g=original	!LO:LB:g=original	!	!	!	!LO:LB:g=original	!	!	!	!LO:LB:g=original	!	!	!	!	!	!
!	!	!	!	!	!	!	!	!	!	!	!	!	!	!	!	!	!	!LO:LB:g=original	!LO:LB:g=original
=24	=24	=24	=24	=24	=24	=24	=24	=24	=24	=24	=24	=24	=24	=24	=24	=24	=24	=24	=24
8.AA/L	9 4	8.AA/L	8ddT>\L	8ddT>\L	8AA/	-e-	8B\	-e-	8e\	-e-	8dd\	-e-	8dd\	-e-	1ryy	4e/	8ddT>\L	4e/	8ddT>\L
.	.	.	8cc\J	8cc\J	8AA/	-mus	8A\	-mus	8e\	-mus	8cc\	-mus	8cc\	-mus	.	.	8cc\J	.	8cc\J
16AA/K	8 3	16AA/K	.	.	.	.	.	.	.	.	.	.	.	.	.	.	.	.	.
!	!	!	!	!	!	!	!LO:LB:g=original	!	!	!	!	!	!	!	!	!	!	!	!
8AA/	.	8.AA/	16aa\KL	16aa\KL	8.AA/	te-	8.A/	te-	8.e\	te-	8.cc\	te-	8.cc\	te-	.	4r	4r	4cc\	2aa\
.	.	.	8cc\	8cc\	.	.	.	.	.	.	.	.	.	.	.	.	.	.	.
8AA/J	.	.	.	.	.	.	.	.	.	.	.	.	.	.	.	.	.	.	.
.	.	16AA/Jk	8aa\	16aa\Jk	16AA/	-ne-	16A/	-ne-	16e\	-ne-	16cc\	-ne-	16cc\	-ne-	.	.	.	.	.
8D/L	6 5	8D/L	.	16aa\KL	8D/	-bra-	8A/	-bra-	8f\	-bra-	8b\	-bra-	8b\	-bra-	.	2r	2r	2b\	.
.	.	.	8b\	8b\	.	.	.	.	.	.	.	.	.	.	.	.	.	.	.
8D/	.	8D/	.	.	8D/	-rum	8A/	-rum	8f\	-rum	8b\	-rum	8b\	-rum	.	.	.	.	.
.	.	.	8aa\	8aa\	.	.	.	.	.	.	.	.	.	.	.	.	.	.	.
!	!	!	!	!	!	!	!	!	!	!	!LO:LB:g=original	!	!	!	!	!	!	!	!
8D#X/	6 5	8D#X/	.	.	8.D#X/	o-	8.A/	o-	8.f#X\	o-	8.b\	o-	8.b\	o-	.	.	.	.	4aa\
.	.	.	8b\	8b\	.	.	.	.	.	.	.	.	.	.	.	.	.	.	.
8D#/J	# x	8D#/J	.	.	.	.	.	.	.	.	.	.	.	.	.	.	.	.	.
!	!	!	!	!	!	!	!	!	!	!	!LO:TX:t=P:problem=brak kreski taktowej	!	!	!	!	!	!	!	!
.	.	.	16aa\Jk	16aa\Jk	16D#/	-pe-	16A/	-pe-	16f#\	-pe-	16b\	-pe-	16b\	-pe-	.	.	.	.	.
!	!	!	!	!	!	!	!	!	!	!	!	!	!	!	!	!	!LO:LB:g=original	!	!
=25	=25	=25	=25	=25	=25	=25	=25	=25	=25	=25	=25-	=25-	=25	=25	=25	=25	=25	=25	=25
!	!	!	!	!LO:TUP:a:problem=klamra łukowa	!	!	!	!	!	!	!	!	!	!	!	!	!	!	!
4E\	# x	4E\	16gg#X\LL	24gg#X\LL	4E\	-ra	4G#X/	-ra	4e\	-ra	4b\	-ra	4b\	-ra	1ryy	4e/	4ee\	2b\	4gg#X\
.	.	.	.	24ff#X\	.	.	.	.	.	.	.	.	.	.	.	.	.	.	.
.	.	.	16ee\	.	.	.	.	.	.	.	.	.	.	.	.	.	.	.	.
.	.	.	.	24ee\	.	.	.	.	.	.	.	.	.	.	.	.	.	.	.
.	.	.	16b\	16b\	.	.	.	.	.	.	.	.	.	.	.	.	.	.	.
!	!	!	!LO:SIC:s=16g#:v	!LO:SIC:s=16g#:v	!	!	!	!	!	!	!	!	!	!	!	!	!	!	!
.	.	.	16g\JJ	16g\JJ	.	.	.	.	.	.	.	.	.	.	.	.	.	.	.
!	!	!	!LO:TX:t=P:problem=mixed beam	!LO:TX:t=P:problem=mixed beam	!	!	!	!	!	!	!	!	!	!	!	!	!	!	!
8.E\L	7 #	8.E\L	16e/LL	16e/LL	8E\	te-	8.B\	te-	8.g#X\	te-	8.dd\	te-	8.dd\	te-	.	4r	4r	.	4dd\
.	.	.	16dd\	16dd\	.	.	.	.	.	.	.	.	.	.	.	.	.	.	.
.	.	.	16bb\	16bb\	8E\	-ne-	.	.	.	.	.	.	.	.	.	.	.	.	.
16E\Jk	.	16E\Jk	16dd\JJ	16dd\JJ	.	.	16B\	-ne-	16g#\	-ne-	16dd\	-ne-	16dd\	-ne-	.	.	.	.	.
!	!	!	!LO:LB:g=original	!	!LO:LB:g=original	!	!LO:LB:g=original	!	!LO:LB:g=original	!	!	!	!	!	!	!	!	!	!
!LO:TX:t=P:problem=mixed beam	!	!LO:TX:t=P:problem=mixed beam	!	!	!	!	!	!	!	!	!	!	!	!	!	!	!	!	!
8F\L	5 x	8F\L	16.cc\LL	16cc\LL	8F\	-bra-	8A/	-bra-	8a\	-bra-	8cc\	-bra-	8cc\	-bra-	.	4r	4r	4.a/	8cc\L
.	.	.	.	16aa\JJ	.	.	.	.	.	.	.	.	.	.	.	.	.	.	.
.	.	.	32aa\JJk	.	.	.	.	.	.	.	.	.	.	.	.	.	.	.	.
!	!	!	!LO:TUP:a:problem=klamra łukowa	!LO:TUP:a:problem=klamra łukowa	!	!	!	!	!	!	!	!	!	!	!	!	!	!	!
!	!	!	!	!LO:SIC:s=24ffn:v	!	!	!	!	!	!	!	!	!	!	!	!	!	!	!
8D\	.	8D\	24ff\LL	24ff#\LL	8D\	-rum	8A/	-rum	8fn\	-rum	8b\	-rum	8b\	-rum	.	.	.	.	8b\J
.	.	.	24dd\	24dd\	.	.	.	.	.	.	.	.	.	.	.	.	.	.	.
.	.	.	24b\JJ	24b\JJ	.	.	.	.	.	.	.	.	.	.	.	.	.	.	.
!	!	!	!LO:TX:t=P:problem=mixed beam	!LO:TX:t=P:problem=mixed beam	!	!	!	!	!	!	!	!	!	!	!	!	!	!	!
8E\	6 5	8E\	8e/L	8e/L	8.E\	o-	8A/	o-	8.e\	o-	8.b\	o-	8.b\	o-	.	8.e/L	8.ee\L	.	4bt>\
8EE/J	4	8EE/J	8gg#X\J	8gg#X\J	.	.	8G#X/	-pe-	.	.	.	.	.	.	.	.	.	8g#X/	.
.	#	.	.	.	16E\	-pe-	.	.	16e\	-pe-	16b\	-pe-	16b\	-pe-	.	16e/Jk	16ee\Jk	.	.
!LO:LB:g=original	!	!	!	!	!	!	!	!	!	!	!LO:LB:g=original	!	!LO:LB:g=original	!	!	!	!	!	!
=26	=26	=26	=26	=26	=26	=26	=26	=26	=26	=26	=26	=26	=26	=26	=26	=26	=26	=26	=26
4AA/	.	4AA/	8a/L	8a/L	4AA/	-ra	4A/	-ra	4e\	-ra	4a\	-ra	4a\	-ra	1ryy	4e/	4ee\	4a/	4a/
!	!	!	!LO:TUP:b:problem=klamra łukowa	!LO:TUP:b:problem=klamra łukowa	!	!	!	!	!	!	!	!	!	!	!	!	!	!	!
.	.	.	24a/L	24a/L	.	.	.	.	.	.	.	.	.	.	.	.	.	.	.
.	.	.	24g#X/	24g#X/	.	.	.	.	.	.	.	.	.	.	.	.	.	.	.
.	.	.	24a/JJ	24a/JJ	.	.	.	.	.	.	.	.	.	.	.	.	.	.	.
!LO:TX:a:Bi:t=S(olo)&colon;	!	!	!	!	!	!	!	!	!	!	!	!	!	!	!	!	!	!	!
!	!	!	!LO:TUP:a:problem=klamra łukowa	!LO:TUP:a:problem=klamra łukowa,grupa niemiarowa w źródle zapisana jako dwie triole pod jedną belką	!	!	!	!	!	!	!	!	!	!	!	!	!	!	!
4r	.	4r	24cc\LL	24cc\LL	4r	.	4r	.	4r	.	4r	.	4r	.	.	4r	4r	4r	4r
.	.	.	24b\	24b\	.	.	.	.	.	.	.	.	.	.	.	.	.	.	.
.	.	.	24cc\JJ	24cc\	.	.	.	.	.	.	.	.	.	.	.	.	.	.	.
!	!	!	!LO:TUP:a:problem=klamra łukowa	!LO:TUP:a:problem=klamra łukowa	!	!	!	!	!	!	!	!	!	!	!	!	!	!	!
.	.	.	24ee\LL	24ee\	.	.	.	.	.	.	.	.	.	.	.	.	.	.	.
.	.	.	24dd\	24dd\	.	.	.	.	.	.	.	.	.	.	.	.	.	.	.
.	.	.	24ee\JJ	24ee\JJ	.	.	.	.	.	.	.	.	.	.	.	.	.	.	.
!	!	!	!	!LO:LB:g=original	!	!	!	!	!	!	!	!	!	!	!	!	!	!	!
8r	.	8r	8aa\L	8aa\L	2r	.	2r	.	2r	.	2r	.	2r	.	.	2r	2r	8r	8r
!	!	!	!LO:TUP:a:problem=klamra łukowa	!LO:TUP:a:problem=klamra łukowa	!	!	!	!	!	!	!	!	!	!	!	!	!	!	!
8A\L	#	8A\L	24cc#X\L	24cc#X\L	.	.	.	.	.	.	.	.	.	.	.	.	.	4a/	8cc#X/L
.	.	.	24b\	24b\	.	.	.	.	.	.	.	.	.	.	.	.	.	.	.
.	.	.	24cc#\JJ	24cc#\JJ	.	.	.	.	.	.	.	.	.	.	.	.	.	.	.
!	!	!	!LO:TUP:a:problem=klamra łukowa	!LO:TUP:a:problem=klamra łukowa	!	!	!	!	!	!	!	!	!	!	!	!	!	!	!
8F\	6	8F\	24dd\LL	24dd\LL	.	.	.	.	.	.	.	.	.	.	.	.	.	.	8dd/
.	.	.	24cc#\	24cc#\	.	.	.	.	.	.	.	.	.	.	.	.	.	.	.
.	.	.	24dd\JJ	24dd\JJ	.	.	.	.	.	.	.	.	.	.	.	.	.	.	.
!	!	!LO:TX:a:t=P:problem=w źrodle partia kontynuowana na stronie 25	!	!	!	!	!	!	!	!	!	!	!	!	!	!	!	!	!
!	!	!	!LO:TUP:a:problem=klamra łukowa	!LO:TUP:a:problem=klamra łukowa	!	!	!	!	!	!	!	!	!	!	!	!	!	!	!
8C#X\J	6	8C#X\J	24ee\LL	24ee\LL	.	.	.	.	.	.	.	.	.	.	.	.	.	8a/	8ee/J
.	.	.	24dd\	24dd\	.	.	.	.	.	.	.	.	.	.	.	.	.	.	.
.	.	.	24ee\JJ	24ee\JJ	.	.	.	.	.	.	.	.	.	.	.	.	.	.	.
!	!	!LO:PB:g=original	!LO:LB:g=original	!	!	!	!	!	!	!	!	!	!	!	!	!	!	!	!
=27	=27	=27	=27	=27	=27	=27	=27	=27	=27	=27	=27	=27	=27	=27	=27	=27	=27	=27	=27
4D/	.	4D/	8ff\L	8ff\L	0r	.	0r	.	0r	.	0r	.	0r	.	1ryy	0r	0r	4a/	4ff\
!	!	!	!LO:TUP:a:problem=klamra łukowa	!LO:TUP:a:problem=klamra łukowa	!	!	!	!	!	!	!	!	!	!	!	!	!	!	!
.	.	.	24dd\L	24dd\L	.	.	.	.	.	.	.	.	.	.	.	.	.	.	.
.	.	.	24cc#X\	24cc#X\	.	.	.	.	.	.	.	.	.	.	.	.	.	.	.
.	.	.	24dd\JJ	24dd\JJ	.	.	.	.	.	.	.	.	.	.	.	.	.	.	.
!	!	!	!LO:TUP:a:problem=klamra łukowa	!LO:TUP:a:problem=klamra łukowa	!	!	!	!	!	!	!	!	!	!	!	!	!	!	!
4r	.	4r	24ff\LL	24ff\LL	.	.	.	.	.	.	.	.	.	.	.	.	.	4r	4r
.	.	.	24ee\	24ee\	.	.	.	.	.	.	.	.	.	.	.	.	.	.	.
.	.	.	24ff\JJ	24ff\JJ	.	.	.	.	.	.	.	.	.	.	.	.	.	.	.
!	!	!	!LO:TUP:a:problem=klamra łukowa	!LO:TUP:a:problem=klamra łukowa	!	!	!	!	!	!	!	!	!	!	!	!	!	!	!
.	.	.	24aa\LL	24aa\LL	.	.	.	.	.	.	.	.	.	.	.	.	.	.	.
.	.	.	24gg\	24gg\	.	.	.	.	.	.	.	.	.	.	.	.	.	.	.
.	.	.	24aa\JJ	24aa\JJ	.	.	.	.	.	.	.	.	.	.	.	.	.	.	.
8r	.	8r	8ddd\L	8ddd\L	.	.	.	.	.	.	.	.	.	.	.	.	.	8r	8r
!	!	!	!LO:TUP:a:problem=klamra łukowa	!LO:TUP:a:problem=klamra łukowa	!	!	!	!	!	!	!	!	!	!	!	!	!	!	!
8d\L	.	8d\L	24ff#X\L	24ff#X\L	.	.	.	.	.	.	.	.	.	.	.	.	.	4dd\	8ff#X\L
.	.	.	24ee\	24ee\	.	.	.	.	.	.	.	.	.	.	.	.	.	.	.
.	.	.	24ff#\JJ	24ff#\JJ	.	.	.	.	.	.	.	.	.	.	.	.	.	.	.
!	!	!	!LO:TUP:a:problem=klamra łukowa	!LO:TUP:a:problem=klamra łukowa, kropka zamiast numeru	!	!	!	!	!	!	!	!	!	!	!	!	!	!	!
8B\	.	8B\	24gg\LL	24gg\LL	.	.	.	.	.	.	.	.	.	.	.	.	.	.	8gg\
.	.	.	24ff#\	24ff#\	.	.	.	.	.	.	.	.	.	.	.	.	.	.	.
.	.	.	24gg\JJ	24gg\JJ	.	.	.	.	.	.	.	.	.	.	.	.	.	.	.
!	!	!	!LO:TUP:a:problem=klamra łukowa	!LO:TUP:a:problem=klamra łukowa	!	!	!	!	!	!	!	!	!	!	!	!	!	!	!
8F#X\J	.	8F#X\J	24aa\LL	24aa\LL	.	.	.	.	.	.	.	.	.	.	.	.	.	8dd\	8aa\J
.	.	.	24gg\	24gg\	.	.	.	.	.	.	.	.	.	.	.	.	.	.	.
.	.	.	24aa\JJ	24aa\JJ	.	.	.	.	.	.	.	.	.	.	.	.	.	.	.
!	!	!	!	!	!	!	!	!	!	!	!	!	!	!	!	!	!	!LO:LB:g=original	!LO:LB:g=original
=28	=28	=28	=28	=28	=28	=28	=28	=28	=28	=28	=28	=28	=28	=28	=28	=28	=28	=28	=28
!	!	!	!	!	!LO:TX:a:Bi:t=V[olti]&colon; S[ubito]&colon;	!	!LO:TX:a:Bi:t=V[olti]&colon; Sub[ito]&colon;	!	!LO:TX:a:Bi:t=V[olti]&colon; Sub[ito]&colon;	!	!LO:TX:a:Bi:t=V[olti]&colon; Sub[ito]&colon;	!	!	!	!	!	!	!	!
!	!	!	!LO:TX:t=P:problem=mixed beam	!LO:TX:t=P:problem=mixed beam	!	!	!	!	!	!	!	!	!	!	!	!	!	!	!
4G\	.	4G\	8bb\L	8bb\L	.	.	.	.	.	.	.	.	.	.	1ryy	.	.	4dd\	4bb\
!	!	!	!LO:TUP:b:problem=klamra łukowa	!LO:TUP:b:problem=klamra łukowa	!	!	!	!	!	!	!	!	!	!	!	!	!	!	!
.	.	.	24g/L	24g/L	.	.	.	.	.	.	.	.	.	.	.	.	.	.	.
.	.	.	24f#X/	24f#X/	.	.	.	.	.	.	.	.	.	.	.	.	.	.	.
.	.	.	24g/JJ	24g/JJ	.	.	.	.	.	.	.	.	.	.	.	.	.	.	.
!	!	!	!LO:TUP:a:problem=klamra łukowa, kropka zamiast numeru	!	!	!	!	!	!	!	!	!	!	!	!	!	!	!	!
!	!	!	!LO:TUP:a:problem=klamra łukowa	!LO:TUP:a:problem=klamra łukowa,grupa niemiarowa w źródle zapisana jako dwie triole pod jedną belką	!	!	!	!	!	!	!	!	!	!	!	!	!	!	!
4r	.	4r	24b\LL	24b\LL	.	.	.	.	.	.	.	.	.	.	.	.	.	4r	4r
.	.	.	24a\	24a\	.	.	.	.	.	.	.	.	.	.	.	.	.	.	.
.	.	.	24b\JJ	24b\	.	.	.	.	.	.	.	.	.	.	.	.	.	.	.
!	!	!	!LO:TUP:a:problem=klamra łukowa	!LO:TUP:a:problem=klamra łukowa	!	!	!	!	!	!	!	!	!	!	!	!	!	!	!
.	.	.	24dd\LL	24dd\	.	.	.	.	.	.	.	.	.	.	.	.	.	.	.
.	.	.	24cc\	24cc\	.	.	.	.	.	.	.	.	.	.	.	.	.	.	.
!	!	!	!	!LO:TX:a:t=x:problem='x' lub też '+' po prawej stronie	!	!	!	!	!	!	!	!	!	!	!	!	!	!	!
.	.	.	24dd\JJ	24dd\JJ	.	.	.	.	.	.	.	.	.	.	.	.	.	.	.
!	!	!	!LO:LB:g=original	!LO:LB:g=original	!	!	!	!	!	!	!	!	!	!	!	!	!	!	!
8r	.	8r	8gg\L	8gg\L	.	.	.	.	.	.	.	.	.	.	.	.	.	8r	8r
!	!	!	!LO:TUP:a:problem=klamra łukowa	!LO:TUP:a:problem=klamra łukowa	!	!	!	!	!	!	!	!	!	!	!	!	!	!	!
8G\L	.	8G\L	24b\L	24b\L	.	.	.	.	.	.	.	.	.	.	.	.	.	4g/	8b\L
.	.	.	24a\	24a\	.	.	.	.	.	.	.	.	.	.	.	.	.	.	.
.	.	.	24b\JJ	24b\JJ	.	.	.	.	.	.	.	.	.	.	.	.	.	.	.
!	!	!	!LO:TUP:a:problem=klamra łukowa	!LO:TUP:a:problem=klamra łukowa	!	!	!	!	!	!	!	!	!	!	!	!	!	!	!
8E\	.	8E\	24cc\LL	24cc\LL	.	.	.	.	.	.	.	.	.	.	.	.	.	.	8cc\
.	.	.	24b\	24b\	.	.	.	.	.	.	.	.	.	.	.	.	.	.	.
.	.	.	24cc\JJ	24cc\JJ	.	.	.	.	.	.	.	.	.	.	.	.	.	.	.
!	!	!	!LO:TUP:a:problem=klamra łukowa	!LO:TUP:a:problem=klamra łukowa	!	!	!	!	!	!	!	!	!	!	!	!	!	!	!
8BB\J	.	8BB\J	24dd\LL	24dd\LL	.	.	.	.	.	.	.	.	.	.	.	.	.	8g/	8dd\J
.	.	.	24cc\	24cc\	.	.	.	.	.	.	.	.	.	.	.	.	.	.	.
.	.	.	24dd\JJ	24dd\JJ	.	.	.	.	.	.	.	.	.	.	.	.	.	.	.
!	!	!	!	!	!LO:PB:g=original	!	!LO:PB:g=original	!	!LO:PB:g=original	!	!LO:PB:g=original	!	!	!	!	!	!	!	!
=29	=29	=29	=29	=29	=29	=29	=29	=29	=29	=29	=29	=29	=29	=29	=29	=29	=29	=29	=29
*	*	*	*^	*^	*	*	*	*	*	*	*	*	*	*	*	*	*	*	*
4C/	.	4C/	8ee/	8cc\	8ee/	8cc\L	4C/	o	4G/	O	4d\	o	4cc\	O	4cc\	O:	1ryy	4e/	4cc\	4cc\	4cc\
!	!	!	!	!LO:TUP:a:problem=klamra łukowa	!	!LO:TUP:a:problem=klamra łukowa	!	!	!	!	!	!	!	!	!	!	!	!	!	!	!
.	.	.	12.ryy	24ee\LL	12.ryy	24ee\L	.	.	.	.	.	.	.	.	.	.	.	.	.	.	.
.	.	.	.	24dd\	.	24dd\	.	.	.	.	.	.	.	.	.	.	.	.	.	.	.
.	.	.	.	24cc\JJ	.	24cc\JJ	.	.	.	.	.	.	.	.	.	.	.	.	.	.	.
4D/	.	4D/	8b\L	4ryy	8b\L	4ryy	4D/	su-	4F/	su-	4f\	su-	4b\	su-	4b\	Su-	.	4r	4r	4b\	4b\
!	!	!	!LO:TUP:a:problem=klamra łukowa	!	!LO:TUP:a:problem=klamra łukowa	!	!	!	!	!	!	!	!	!	!	!	!	!	!	!	!
.	.	.	24ff\L	.	24ff\L	.	.	.	.	.	.	.	.	.	.	.	.	.	.	.	.
.	.	.	24ee\	.	24ee\	.	.	.	.	.	.	.	.	.	.	.	.	.	.	.	.
.	.	.	24dd\JJ	.	24dd\JJ	.	.	.	.	.	.	.	.	.	.	.	.	.	.	.	.
8E\L	.	8E\L	16cc\LL	2ryy	16cc\LL	2ryy	8E\	-pre-	8G/	-pre-	8e\	-pre-	8cc\	-pre-	8cc\	-pre-	.	4.g/	4.cc\	8cc\L	8cc\L
.	.	.	16g\	.	16g\	.	.	.	.	.	.	.	.	.	.	.	.	.	.	.	.
16D\L	.	16D\L	16b\	.	16b\	.	16D/LL	-mum	8G/	-mum	8g\	-mum	16b\LL	-mum	16b\LL	-mum	.	.	.	16b\L	16b\L
16C\JJ	.	16C\JJ	16cc\JJ	.	16cc\JJ	.	16C/JJ	.	.	.	.	.	16cc\JJ	.	16cc\JJ	.	.	.	.	16cc\JJ	16cc\JJ
8BB/L	.	8BB/L	16dd\LL	.	16dd\LL	.	8BB/	cae-	8B\	cae-	8g\	Cae-	8dd\	Cae-	8dd\	Cae-	.	.	.	8dd\L	8dd\L
.	.	.	16g\	.	16g\	.	.	.	.	.	.	.	.	.	.	.	.	.	.	.	.
8GG/J	.	8GG/J	16b\	.	16dd\	.	8GG/	-li	8d\	-li	8g\	-li	8ff\	-li	8ff\	-li	.	8g/	8dd\	8dd\J	8ff\J
.	.	.	16dd\JJ	.	16ff\JJ	.	.	.	.	.	.	.	.	.	.	.	.	.	.	.	.
*	*	*	*v	*v	*	*	*	*	*	*	*	*	*	*	*	*	*	*	*	*	*
*	*	*	*	*v	*v	*	*	*	*	*	*	*	*	*	*	*	*	*	*	*
=30	=30	=30	=30	=30	=30	=30	=30	=30	=30	=30	=30	=30	=30	=30	=30	=30	=30	=30	=30
8C/L	.	8C/L	8ccT>\L	8eet>\L	8BB/	Nu-	8c\	Nu-	8g\	Nu-	8ee\	Nu-	8ee\	Nu-	1ryy	8g/L	8ee\L	8cc\L	8ee\L
8GG/J	.	8GG/J	8b\J	8dd\J	8GG/	-men	8B\	-men	8g\	-men	8dd\	-men	8dd\	-men	.	8g/J	8dd\J	8b\J	8dd\J
16GG/LL	.	(<16GG/LL	16G/LL	16G/LL	4r	.	4r	.	4r	.	4r	.	4r	.	.	4r	4r	4r	4r
32AA/L	.	32AA/L	32A/L	32A/L	.	.	.	.	.	.	.	.	.	.	.	.	.	.	.
32BB/	.	32BB/	32B/	32B/	.	.	.	.	.	.	.	.	.	.	.	.	.	.	.
32C/	.	32C/	(<32c/	32c/	.	.	.	.	.	.	.	.	.	.	.	.	.	.	.
32D/	.	32D/	32d/	32d/	.	.	.	.	.	.	.	.	.	.	.	.	.	.	.
32E/	.	32E/	32e/	32e/	.	.	.	.	.	.	.	.	.	.	.	.	.	.	.
32F#X/JJJ	.	32F#X/JJJ)	32f#X/JJJ)	32f#X/JJJ	.	.	.	.	.	.	.	.	.	.	.	.	.	.	.
!	!	!LO:LB:g=original	!LO:LB:g=original	!LO:LB:g=original	!	!	!	!	!	!	!	!	!LO:PB:g=original	!	!	!	!	!	!
!	!	!LO:TX:t=P:4\right:problem	!	!	!	!	!	!	!	!	!	!	!	!	!	!	!	!	!
4G\	.	4G\	16g\LL	16g\LL	4G\	gra-	4B\	gra-	4g\	gra-	4dd\	gra-	4dd\	gra-	.	4G/	4g/	4b\	4dd\
.	.	.	16b\	16b\	.	.	.	.	.	.	.	.	.	.	.	.	.	.	.
.	.	.	16dd\	16dd\	.	.	.	.	.	.	.	.	.	.	.	.	.	.	.
.	.	.	16gg\JJ	16gg\JJ	.	.	.	.	.	.	.	.	.	.	.	.	.	.	.
!	!	!	!	!	!	!	!	!	!	!	!	!	!	!	!	!LO:LB:g=original	!	!	!
!	!	!LO:TX:t=P:4\right:problem	!	!	!	!	!	!	!	!	!	!	!	!	!	!	!	!	!
4G\	6 4	4G\	16g\LL	16g\LL	4G\	-ti-	4c\	-ti-	4g\	-ti-	4ee\	-ti-	4ee\	-ti-	.	8G/L	8.g/L	4cc\	4ee\
.	.	.	(>16cc\	16cc\	.	.	.	.	.	.	.	.	.	.	.	.	.	.	.
.	.	.	16cc\	16ee\	.	.	.	.	.	.	.	.	.	.	.	8G/J	.	.	.
.	.	.	16ee\JJ)	16gg\JJ	.	.	.	.	.	.	.	.	.	.	.	.	16g/Jk	.	.
!LO:LB:g=original	!	!	!	!	!LO:LB:g=original	!	!LO:LB:g=original	!	!LO:LB:g=original	!	!LO:LB:g=original	!	!	!	!	!	!	!	!
=31	=31	=31	=31	=31	=31	=31	=31	=31	=31	=31	=31	=31	=31	=31	=31	=31	=31	=31	=31
.	.	.	8qqee/	.	.	.	.	.	.	.	.	.	.	.	.	.	.	.	.
!LO:TX:t=P:problem=mixed beam	!	!LO:TX:t=P:problem=mixed beam	!	!	!	!	!	!	!	!	!	!	!	!	!	!	!	!	!
!	!	!LO:TX:t=P:problem=8\right	!	!	!	!	!	!	!	!	!	!	!	!	!	!	!	!	!
8G\L	7 5	8G\L	8dd\L	8ff\L	8G\	-a-	8d\	-a-	8g\	-a-	8ff\	-a-	8ff\	-a-	1ryy	4G/	4g/	8dd\L	8ff\L
!	!	!LO:TX:t=P:problem=8\right	!	!	!	!	!	!	!	!	!	!	!	!	!	!	!	!	!
8G\	.	8G\	16cc\L	16ee\L	8G\	-rum	16c\LL	-rum	8g\	-rum	16ee\LL	-rum	16ee\LL	-rum	.	.	.	16cc\L	16ee\L
.	.	.	16dd\JJ	16ff\JJ	.	.	16d\JJ	.	.	.	16ff\JJ	.	16ff\JJ	.	.	.	.	16dd\JJ	16ff\JJ
!	!	!	!LO:TX:t=P:problem=mixed beam	!LO:TX:t=P:problem=mixed beam	!	!	!	!	!	!	!	!	!	!	!	!	!	!	!
8GG/	8 6	8GG/	16ee\LL	16gg\LL	8GG/	prae-	8e\	prae-	8g\	prae-	8gg\	pro-	8gg\	prae-	.	8r	8r	8ee\L	8gg\L
.	.	.	16g/	16g/	.	.	.	.	.	.	.	.	.	.	.	.	.	.	.
8GG/J	7 5	8GG/J	16g/	16g/	8GG/	-be	8d\	-be	8g\	-be	8ff\	-be	8ff\	-be	.	8dd\	8ff\	8dd\J	8ff\J
.	.	.	16dd\JJ	16ff\JJ	.	.	.	.	.	.	.	.	.	.	.	.	.	.	.
!	!	!	!	!	!	!	!	!	!	!	!	!	!	!	!	!	!	!LO:LB:g=original	!LO:LB:g=original
8C/L	9 4	8C/L	8ddT>\L	8ff\L	8C/	lu-	8d\	lu-	8g\	lu-	8ff\	lu-	8ff\	lu-	.	8dd\L	8ff\L	8dd\L	8ff\L
8C/J	8 3	8C/	8cc\J	8ee\J	8C/	-men	8c\	-men	8g\	-men	8ee\	-men	8ee\	-men	.	8cc\J	8ee\J	8cc\J	8ee\J
!	!	!	!LO:TUP:a:problem=klamra łukowa	!LO:TUP:a:problem=klamra łukowa	!	!	!	!	!	!	!	!	!	!	!	!	!	!	!
8.C/L	.	8C/	24ccc\LL	24ccc\LL	8.C/	nos	8.c\	nos	8.g\	nos	8.ee\	nos	8.ee\	nos	.	4r	4r	4cc\	4ee\
.	.	.	24bb\	24bb\	.	.	.	.	.	.	.	.	.	.	.	.	.	.	.
.	.	.	24aa\	24aa\	.	.	.	.	.	.	.	.	.	.	.	.	.	.	.
.	.	8C/J	24gg\	24gg\	.	.	.	.	.	.	.	.	.	.	.	.	.	.	.
.	.	.	24ff\	24ff\	.	.	.	.	.	.	.	.	.	.	.	.	.	.	.
16C/Jk	.	.	.	.	16C/	ju-	16c\	ju-	16g\	ju-	16ee\	ju-	16ee\	ju-	.	.	.	.	.
.	.	.	24ee\JJ	24ee\JJ	.	.	.	.	.	.	.	.	.	.	.	.	.	.	.
!	!	!	!	!	!	!	!	!	!	!	!	!	!LO:LB:g=original	!	!	!	!	!	!
=32	=32	=32	=32	=32	=32	=32	=32	=32	=32	=32	=32	=32	=32	=32	=32	=32	=32	=32	=32
!	!	!LO:TX:t=P:problem=8.\right	!	!	!	!	!	!	!	!	!	!	!	!	!	!	!	!	!
!	!	!	!LO:TUP:a:problem=klamra łukowa	!LO:TUP:a:problem=klamra łukowa	!	!	!	!	!	!	!	!	!	!	!	!	!	!	!
8.F\L	6_ 5_	8.F\L	24dd\LL	24dd\LL	8F\	-va-	8c\	-va-	8a\	-va-	8dd\	-va-	8dd\	-va-	1ryy	2r	2r	2cc\	1dd
.	.	.	24ee\	24ee\	.	.	.	.	.	.	.	.	.	.	.	.	.	.	.
.	.	.	24dd\JJ	24dd\JJ	.	.	.	.	.	.	.	.	.	.	.	.	.	.	.
!	!	!	!LO:TUP:a:problem=klamra łukowa	!LO:TUP:a:problem=klamra łukowa	!	!	!	!	!	!	!	!	!	!	!	!	!	!	!
.	.	.	24ff\LL	24ff\LL	8F\	-re	8c\	-re	8a\	-re	8dd\	-re	8dd\	-re	.	.	.	.	.
.	.	.	24gg\	24gg\	.	.	.	.	.	.	.	.	.	.	.	.	.	.	.
!	!	!LO:TX:t=P:problem=16\right	!	!	!	!	!	!	!	!	!	!	!	!	!	!	!	!	!
16F\Jk	.	16F\Jk	.	.	.	.	.	.	.	.	.	.	.	.	.	.	.	.	.
.	.	.	24ff\JJ	24ff\JJ	.	.	.	.	.	.	.	.	.	.	.	.	.	.	.
!	!	!	!	!	!	!	!LO:LB:g=original	!	!	!	!	!	!	!	!	!	!	!	!
!	!	!	!LO:TX:t=P:problem=mixed beam	!LO:TX:t=P:problem=mixed beam	!	!	!	!	!	!	!	!	!	!	!	!	!	!	!
!	!	!	!LO:TUP:b:problem=klamra łukowa	!LO:TUP:b:problem=klamra łukowa	!	!	!	!	!	!	!	!	!	!	!	!	!	!	!
8.F#X\L	.	8.F#X\L	24aa\LL	24aa\LL	8.F#X\	pro-	8.c\	pro-	8.a\	pro-	8.dd\	pro-	8.dd\	pro-	.	.	.	.	.
.	.	.	24a/	24a/	.	.	.	.	.	.	.	.	.	.	.	.	.	.	.
.	.	.	24b/JJ	24b/JJ	.	.	.	.	.	.	.	.	.	.	.	.	.	.	.
!	!	!	!LO:TUP:a:problem=klamra łukowa	!LO:TUP:a:problem=klamra łukowa	!	!	!	!	!	!	!	!	!	!	!	!	!	!	!
.	.	.	24cc\LL	24cc\LL	.	.	.	.	.	.	.	.	.	.	.	.	.	.	.
.	.	.	24b\	24b\	.	.	.	.	.	.	.	.	.	.	.	.	.	.	.
16F#\Jk	X X	16F#\Jk	.	.	16F#\	-pe-	16c\	-pe-	16a\	-pe-	16dd\	-pe-	16dd\	-pe-	.	.	.	.	.
.	.	.	24cc\JJ	24cc\JJ	.	.	.	.	.	.	.	.	.	.	.	.	.	.	.
!	!	!	!LO:LB:g=original	!LO:LB:g=original	!LO:LB:g=original	!	!	!	!LO:LB:g=original	!	!LO:LB:g=original	!	!	!	!	!	!	!	!
!	!	!LO:TX:t=P:4\right:problem	!	!	!	!	!	!	!	!	!	!	!	!	!	!	!	!	!
4G\	.	4G\	16b/LL	16b/LL	4G\	-ra	4B\	-ra	4g\	-ra	4dd\	-ra	4dd\	-ra	.	4g/	4dd\	[<2b\	.
.	.	.	16G/	16G/	.	.	.	.	.	.	.	.	.	.	.	.	.	.	.
.	.	.	16B/	16B/	.	.	.	.	.	.	.	.	.	.	.	.	.	.	.
.	.	.	16d/JJ	16d/JJ	.	.	.	.	.	.	.	.	.	.	.	.	.	.	.
!	!	!LO:TX:t=P:problem=8.\right	!	!	!	!	!	!	!	!	!	!	!	!	!	!	!	!	!
!	!	!	!LO:TUP:b:problem=klamra łukowa	!LO:TUP:b:problem=klamra łukowa	!	!	!	!	!	!	!	!	!	!	!	!	!	!	!
8.G\L	.	8.G\L	24g/LL	24g/LL	8.G\	ar-	8.B\	ar-	8.g\	ar-	8.dd\	ar-	8.dd\	ar-	.	4r	4r	.	.
.	.	.	24a/	24a/	.	.	.	.	.	.	.	.	.	.	.	.	.	.	.
.	.	.	24b/JJ	24b/JJ	.	.	.	.	.	.	.	.	.	.	.	.	.	.	.
!	!	!	!LO:TUP:a:problem=klamra łukowa, kropka zamiast numeru	!	!	!	!	!	!	!	!	!	!	!	!	!	!	!	!
!	!	!	!	!LO:TUP:a:problem=klamra łukowa	!	!	!	!	!	!	!	!	!	!	!	!	!	!	!
.	.	.	24b\LL	24b\LL	.	.	.	.	.	.	.	.	.	.	.	.	.	.	.
.	.	.	24cc\	24cc\	.	.	.	.	.	.	.	.	.	.	.	.	.	.	.
!	!	!LO:TX:t=P:problem=16\right	!	!	!	!	!	!	!	!	!	!	!	!	!	!	!	!	!
16G\Jk	.	16G\Jk	.	.	16G\	-ma	16B\	-ma	16g\	-ma	16dd\	-ma	16dd\	-ma	.	.	.	.	.
.	.	.	24dd\JJ	24dd\JJ	.	.	.	.	.	.	.	.	.	.	.	.	.	.	.
!	!	!	!	!	!	!	!	!	!	!	!	!	!	!	!	!	!LO:LB:g=original	!	!
=33	=33	=33	=33	=33	=33	=33	=33	=33	=33	=33	=33	=33	=33	=33	=33	=33	=33	=33	=33
8.C/L	7	8.C/L	(>32ee\LLL	(>32ee\LLL	8C/	lu-	8B\	lu-	8g\	lu-	8ee\	lu-	8ee\	lu-	1ryy	0r	0r	4b/]	2ee\
.	.	.	32dd\	32dd\	.	.	.	.	.	.	.	.	.	.	.	.	.	.	.
.	.	.	32ee\	32ee\	.	.	.	.	.	.	.	.	.	.	.	.	.	.	.
.	.	.	32ff\J)	32ff\J)	.	.	.	.	.	.	.	.	.	.	.	.	.	.	.
.	.	.	16gg\	16gg\	8C/	-cis	8B\	-cis	8g\	-cis	8ee\	-cis	8ee\	-cis	.	.	.	.	.
16C/Jk	.	16C/Jk	16gg\JJ	16gg\JJ	.	.	.	.	.	.	.	.	.	.	.	.	.	.	.
!	!	!	!	!LO:TX:t=P:problem=błędny rytm - pod łukiem kropka sugerująca grupę niemiarową	!	!	!	!	!	!	!	!	!	!	!	!	!	!	!
8.F\L	7	8.F\L	(>32aa\LLL	(>32aa\LLL	8.F\	in-	8.A/	in-	8.f\	in-	8.ee\	in-	8.ee\	in-	.	.	.	2a/	.
.	.	.	32gg\	32gg\	.	.	.	.	.	.	.	.	.	.	.	.	.	.	.
.	.	.	32aa\	32aa\	.	.	.	.	.	.	.	.	.	.	.	.	.	.	.
.	.	.	32ccc\J)	32ccc\J)	.	.	.	.	.	.	.	.	.	.	.	.	.	.	.
.	.	.	16ccc\	16ccc\	.	.	.	.	.	.	.	.	.	.	.	.	.	.	.
16F\Jk	.	16F\Jk	16ccc\JJ	16ccc\JJ	16F\	-du-	16A/	-du-	16f\	-du-	16ee\	-du-	16ee\	-du-	.	.	.	.	.
!	!	!	!	!	!	!	!	!	!	!	!	!	!LO:LB:g=original	!	!	!	!	!	!
8.BB/L	7	8.BB/L	(>32dd\LLL	(>32dd\LLL	8BB/	-e-	8A/	-e-	8f\	-e-	8dd\	-e-	8dd\	-e-	.	.	.	.	2dd\
.	.	.	32cc\	32cc\	.	.	.	.	.	.	.	.	.	.	.	.	.	.	.
.	.	.	32dd\	32dd\	.	.	.	.	.	.	.	.	.	.	.	.	.	.	.
.	.	.	32ee\J)	32ee\J)	.	.	.	.	.	.	.	.	.	.	.	.	.	.	.
.	.	.	16ff\	16ff\	8BB/	-mus	8A/	-mus	8f\	-mus	8dd\	-mus	8dd\	-mus	.	.	.	.	.
16BB/Jk	.	16BB/Jk	16ff\JJ	16ff\JJ	.	.	.	.	.	.	.	.	.	.	.	.	.	.	.
8.E\L	7	8.E\L	(>32gg\LLL	(>32gg\LLL	8.E\	a-	8.G/	a-	8.e\	a-	8.dd\	a-	8.dd\	a-	.	.	.	[<4g/	.
.	.	.	32ff\	32ff\	.	.	.	.	.	.	.	.	.	.	.	.	.	.	.
.	.	.	32gg\	32gg\	.	.	.	.	.	.	.	.	.	.	.	.	.	.	.
.	.	.	32aa\J)	32aa\J)	.	.	.	.	.	.	.	.	.	.	.	.	.	.	.
.	.	.	16bb\	16bb\	.	.	.	.	.	.	.	.	.	.	.	.	.	.	.
!	!	!	!	!LO:TX:a:t=P:problem=w źródle brak kreski taktowej	!	!	!	!	!	!	!	!	!	!	!	!	!	!	!
16E\Jk	.	16E\Jk	16bb\JJ	16bb\JJ	16E\	-la-	16G/	-la-	16e\	-la-	16dd\	-la-	16dd\	-la-	.	.	.	.	.
!	!	!LO:LB:g=original	!LO:LB:g=original	!LO:LB:g=original	!LO:LB:g=original	!	!LO:LB:g=original	!	!LO:LB:g=original	!	!LO:LB:g=original	!	!	!	!	!	!	!	!
=34	=34	=34	=34	=34-	=34	=34	=34	=34	=34	=34	=34	=34	=34	=34	=34	=34	=34	=34	=34
!	!	!	!	!	!	!	!	!	!	!	!LO:TX:b:i:t=c	!	!	!	!	!	!	!	!
8.AA/L	7	8.AA/L	(>32cc\LLL	(>32cc\LLL	8AA/	-cres	8G/	-cres	8e\	-cres	8cc\	-Cres	8cc\	-cres	1ryy	.	.	4g/]	2cc\
.	.	.	32b\	32b\	.	.	.	.	.	.	.	.	.	.	.	.	.	.	.
.	.	.	32cc\	32cc\	.	.	.	.	.	.	.	.	.	.	.	.	.	.	.
.	.	.	32dd\J)	32dd\J)	.	.	.	.	.	.	.	.	.	.	.	.	.	.	.
.	.	.	16ee\	16ee\	8AA/	ab-	8G/	ab-	8e\	ab-	8cc\	ab-	8cc\	ab-	.	.	.	.	.
16AA/Jk	.	16AA/Jk	16ee\JJ	16ee\JJ	.	.	.	.	.	.	.	.	.	.	.	.	.	.	.
8.D\L	7	8.D/L	(>32ff\LLL	(>32ff\LLL	8.D/	-ji-	8.F/	-ji-	8d\	-ji-	8.cc\	-ji-	8.cc\	-ji-	.	.	.	2f/	.
.	.	.	32ee\	32ee\	.	.	.	.	.	.	.	.	.	.	.	.	.	.	.
.	.	.	32ff\	32ff\	.	.	.	.	.	.	.	.	.	.	.	.	.	.	.
.	.	.	32gg\J)	32gg\J)	.	.	.	.	.	.	.	.	.	.	.	.	.	.	.
.	.	.	16aa\	16aa\	.	.	.	.	8d\	-ci-	.	.	.	.	.	.	.	.	.
16D\Jk	.	16D/Jk	16aa\JJ	16aa\JJ	16D/	-ci-	16F/	-ci-	.	.	16cc\	-ci-	16cc\	-ci-	.	.	.	.	.
8.GG/L	.	8.GG/L	(>32b\LLL	(>32b\LLL	8GG/	-e-	8F/	-e-	8d\	-e-	8b\	-e-	8b\	-e-	.	.	.	.	2b/
.	.	.	32a\	32a\	.	.	.	.	.	.	.	.	.	.	.	.	.	.	.
.	.	.	32b\	32b\	.	.	.	.	.	.	.	.	.	.	.	.	.	.	.
.	.	.	32cc\J)	32cc\J)	.	.	.	.	.	.	.	.	.	.	.	.	.	.	.
.	.	.	16dd\	16dd\	8GG/	-mus	8F/	-mus	8d\	-mus	8b\	-mus	8b\	-mus	.	.	.	.	.
16GG/K	7	16GG/Jk	16dd\JJ	16dd\JJ	.	.	.	.	.	.	.	.	.	.	.	.	.	.	.
!	!	!	!LO:TUP:a:problem=klamra łukowa	!LO:TUP:a:problem=klamra łukowa	!	!	!	!	!	!	!	!	!	!	!	!	!	!	!
8.GG/	.	8.GG/L	24dd\LL	24dd\LL	8.GG/	te-	8.F/	te-	8.d\	te-	8.b\	te-	8.b\	te-	.	.	.	4f/	.
.	.	.	24cc\	24cc\	.	.	.	.	.	.	.	.	.	.	.	.	.	.	.
.	.	.	24b\JJ	24b\JJ	.	.	.	.	.	.	.	.	.	.	.	.	.	.	.
!	!	!	!LO:TUP:b:problem=klamra łukowa	!LO:TUP:b:problem=klamra łukowa	!	!	!	!	!	!	!	!	!	!	!	!	!	!	!
.	.	.	24a/LL	24a/LL	.	.	.	.	.	.	.	.	.	.	.	.	.	.	.
.	.	.	24g/	24g/	.	.	.	.	.	.	.	.	.	.	.	.	.	.	.
16GG/Jk	.	16GG/Jk	.	.	16GG/	-ne-	16F/	-ne-	16d\	-ne-	16b\	-ne-	16b\	-ne-	.	.	.	.	.
.	.	.	24f/JJ	24f/JJ	.	.	.	.	.	.	.	.	.	.	.	.	.	.	.
!	!	!	!	!	!	!	!	!	!	!	!LO:LB:g=original	!	!LO:LB:g=original	!	!	!	!	!	!
=35	=35	=35	=35	=35	=35	=35	=35	=35	=35	=35	=35	=35	=35	=35	=35	=35	=35	=35	=35
!	!	!	!LO:TX:t=P:problem=mixed beam	!LO:TX:t=P:problem=mixed beam	!	!	!	!	!	!	!	!	!	!	!	!	!	!	!
8.C/L	.	8.C/L	16e/LL	16e/LL	8C/	-bra-	8E/	-bra-	8e\	-bra-	8cc\	-bra-	8cc\	-bra-	1ryy	8r	8r	4.e/	4.cc\
.	.	.	16ee\	16ee\	.	.	.	.	.	.	.	.	.	.	.	.	.	.	.
.	.	.	16gg\	16gg\	8C/	-rum	8e\	-rum	8g\	-rum	8cc\	-rum	8cc\	-rum	.	8g/	8ee\	.	.
16C/Jk	.	16C/Jk	16ccc\JJ	16ccc\JJ	.	.	.	.	.	.	.	.	.	.	.	.	.	.	.
!LO:LB:g=original	!	!	!	!	!	!	!LO:LB:g=original	!	!LO:LB:g=original	!	!	!	!	!	!	!	!	!	!
!LO:TX:t=P:problem=mixed beam	!	!LO:TX:t=P:problem=mixed beam	!	!	!	!	!	!	!	!	!	!	!	!	!	!	!	!	!
8G\L	4	8G\L	8dd\L	8dd\L	8.G\	o-	8.d\	o-	8.g\	o-	8cc\	o-	8cc\	o-	.	8.g/L	4dd\	.	.
8GG/J	3	8GG/J	8bb\J	8bb\J	.	.	.	.	.	.	8b\	-pe-	8b\	-pe-	.	.	.	8d/	8b\
.	.	.	.	.	16GG/	-pe-	16d\	-pe-	16g\	-pe-	.	.	.	.	.	16g/Jk	.	.	.
!	!	!	!	!	!LO:LB:g=original	!	!	!	!	!	!	!	!	!	!	!	!	!	!
4C/	.	4C/	32cc\LLL	(>32cc\LLL	4C/	-ra	4e\	-ra	4g\	-ra	4cc\	-ra	4cc\	-ra	.	4g/	4ee\	4e/	4cc\
.	.	.	32dd\	32dd\	.	.	.	.	.	.	.	.	.	.	.	.	.	.	.
.	.	.	(>32ee\	32ee\	.	.	.	.	.	.	.	.	.	.	.	.	.	.	.
.	.	.	32ff\	32ff\	.	.	.	.	.	.	.	.	.	.	.	.	.	.	.
.	.	.	32gg\	32gg\	.	.	.	.	.	.	.	.	.	.	.	.	.	.	.
.	.	.	32aa\	32aa\	.	.	.	.	.	.	.	.	.	.	.	.	.	.	.
.	.	.	32bb\	32bb\	.	.	.	.	.	.	.	.	.	.	.	.	.	.	.
.	.	.	32ccc\JJJ)	32ccc\JJJ)	.	.	.	.	.	.	.	.	.	.	.	.	.	.	.
!	!	!	!LO:TX:t=P:problem=mixed beam	!LO:TX:t=P:problem=mixed beam	!	!	!	!	!	!	!	!	!	!	!	!	!	!	!
8.G\L	7	8.G\L	16G/LL	16G/LL	8.G\	te-	8.d\	te-	8.b\	te-	8.ff\	te-	8.ff\	te-	.	8.dd\L	8.ff\L	4dd\	4ff\
.	.	.	16ff\	16ff\	.	.	.	.	.	.	.	.	.	.	.	.	.	.	.
.	.	.	16ddd\	16ddd\	.	.	.	.	.	.	.	.	.	.	.	.	.	.	.
16G\Jk	.	16G\Jk	16ff\JJ	16ff\JJ	16G\	-ne-	16d\	-ne-	16b\	-ne-	16ff\	-ne-	16ff\	-ne-	.	16dd\Jk	16ff\Jk	.	.
!	!	!	!LO:LB:g=original	!LO:LB:g=original	!	!	!	!	!	!	!	!	!	!	!	!	!	!	!
!	!	!	!	!	!	!	!	!	!	!	!	!	!	!	!	!	!	!LO:LB:g=original	!
=36	=36	=36	=36	=36	=36	=36	=36	=36	=36	=36	=36	=36	=36	=36	=36	=36	=36	=36	=36
!LO:TX:t=P:problem=mixed beam	!	!LO:TX:t=P:problem=mixed beam	!	!	!	!	!	!	!	!	!	!	!	!	!	!	!	!	!
8A\L	5 x	8A\L	16.ee\LL	16.ee\LL	8A\	-bra-	8c\	-bra-	8cc\	-bra-	8ee\	-bra-	8ee\	-bra-	1ryy	8cc\L	8ee\L	4.cc\	8ee\L
.	.	.	32ccc\JJk	32ccc\JJk	.	.	.	.	.	.	.	.	.	.	.	.	.	.	.
!	!	!	!LO:TUP:a:problem=klamra łukowa	!LO:TUP:a:problem=klamra łukowa	!	!	!	!	!	!	!	!	!	!	!	!	!	!	!
8F\	6 5	8F\	24aa\LL	24aa\LL	8F\	-rum	8c\	-rum	8a\	-rum	8dd\	-rum	8dd\	-rum	.	8cc\J	8dd\J	.	8dd\J
.	.	.	24ff\	24ff\	.	.	.	.	.	.	.	.	.	.	.	.	.	.	.
.	.	.	24dd\JJ	24dd\JJ	.	.	.	.	.	.	.	.	.	.	.	.	.	.	.
!	!	!	!	!	!	!	!	!	!	!	!LO:LB:g=original	!	!	!	!	!	!	!	!
!	!	!	!LO:TX:t=P:problem=mixed beam	!LO:TX:t=P:problem=mixed beam	!	!	!	!	!	!	!	!	!	!	!	!	!	!	!
8G\	4 x	8G\	8g/L	8g/L	8.G\	o-	8c\	o-	8.g\	o-	8.dd\	o-	8.dd\	o-	.	8.g/L	4dd\	.	4ddT>\
8GG/J	3 x	8GG/J	8bb\J	8bb\J	.	.	8B\	-pe-	.	.	.	.	.	.	.	.	.	8b\	.
.	.	.	.	.	16G\	-pe-	.	.	16g\	-pe-	16dd\	-pe-	16dd\	-pe-	.	16g/Jk	.	.	.
!	!	!	!	!	!	!	!LO:LB:g=original	!	!LO:LB:g=original	!	!	!	!LO:LB:g=original	!	!	!	!	!	!
8C/	.	8C/	8cc\L	8cc\L	4C/	-ra	4c\	-ra	4g\	-ra	4cc\	-ra	4cc\	-ra	.	8e/	8cc\	4cc\	4cc\
!	!	!	!LO:TUP:a:problem=klamra łukowa	!LO:TUP:a:problem=klamra łukowa	!	!	!	!	!	!	!	!	!	!	!	!	!	!	!
8r	.	8r	24aa\L	24ccc\L	.	.	.	.	.	.	.	.	.	.	.	8r	8r	.	.
.	.	.	24gg\	24bb\	.	.	.	.	.	.	.	.	.	.	.	.	.	.	.
.	.	.	24ff\JJ	24aa\JJ	.	.	.	.	.	.	.	.	.	.	.	.	.	.	.
8C/	.	8C/	8ee\L	8gg\L	4r	.	4r	.	4r	.	4r	.	4r	.	.	8g/	8cc\	4r	4r
!	!	!	!LO:TUP:a:problem=klamra łukowa	!LO:TUP:a:problem=klamra łukowa	!	!	!	!	!	!	!	!	!	!	!	!	!	!	!
8r	.	8r	24aa\L	24ccc\L	.	.	.	.	.	.	.	.	.	.	.	8r	8r	.	.
.	.	.	24gg\	24bb\	.	.	.	.	.	.	.	.	.	.	.	.	.	.	.
.	.	.	24ff\JJ	24aa\JJ	.	.	.	.	.	.	.	.	.	.	.	.	.	.	.
!	!	!LO:LB:g=original	!	!	!LO:LB:g=original	!	!	!	!	!	!	!	!	!	!	!	!	!	!LO:LB:g=original
!	!	!	!	!	!	!	!	!	!	!	!	!	!	!	!	!LO:LB:g=original	!	!	!
=37	=37	=37	=37	=37	=37	=37	=37	=37	=37	=37	=37	=37	=37	=37	=37	=37	=37	=37	=37
*	*	*	*	*	*	*	*	*	*	*	*	*	*	*	*	*	*	*Xtuplet	*
!	!	!	!LO:TX:t=P:problem=mixed beam	!LO:TX:t=P:problem=mixed beam	!	!	!	!	!	!	!	!	!	!	!	!	!LO:N:vis=4	!	!
8C/	.	8C/	8ee\L	8gg\L	0r	.	0r	.	0r	.	0r	.	0r	.	1ryy	8e/	8cc\	4r	4r
!	!	!	!LO:TUP:b:problem=klamra łukowa	!LO:TUP:b:problem=klamra łukowa	!	!	!	!	!	!	!	!	!	!	!	!	!	!	!
8r	.	8r	24c/L	24e/L	.	.	.	.	.	.	.	.	.	.	.	8r	8r	.	.
.	.	.	24d/	24f/	.	.	.	.	.	.	.	.	.	.	.	.	.	.	.
.	.	.	24e/JJ	24g/JJ	.	.	.	.	.	.	.	.	.	.	.	.	.	.	.
!	!	!	!LO:TUP:b:problem=klamra łukowa	!LO:TUP:a:problem=klamra łukowa	!	!	!	!	!	!	!	!	!	!	!	!	!	!	!
8r	.	8r	24f/LL	24a\LL	.	.	.	.	.	.	.	.	.	.	.	8r	8r	8r	8r
.	.	.	24g/	24b\	.	.	.	.	.	.	.	.	.	.	.	.	.	.	.
.	.	.	24a/JJ	24cc\JJ	.	.	.	.	.	.	.	.	.	.	.	.	.	.	.
!	!	!	!LO:TUP:a:problem=klamra łukowa	!LO:TUP:a:problem=klamra łukowa	!	!	!	!	!	!	!	!	!	!	!	!	!	!	!
!	!	!	!	!	!	!	!	!	!	!	!	!	!	!	!	!	!	!	!LO:TUP:a:problem=klamra łukowa
8GG/	.	8GG/	24b\LL	24dd\LL	.	.	.	.	.	.	.	.	.	.	.	8g/L	8dd\	24b\LL	24dd\LL
.	.	.	24cc\	24ee\	.	.	.	.	.	.	.	.	.	.	.	.	.	24cc\	24ee\
.	.	.	24dd\JJ	24ff\JJ	.	.	.	.	.	.	.	.	.	.	.	.	.	24dd\JJ	24ff\JJ
8C/	.	8C/	8cc\L	8ee\L	.	.	.	.	.	.	.	.	.	.	.	8g/J	8ee\	4cc\	4ee\
!	!	!	!LO:TUP:a:problem=klamra łukowa	!LO:TUP:a:problem=klamra łukowa, kropka zamiast numeru	!	!	!	!	!	!	!	!	!	!	!	!	!	!	!
8r	.	8r	24aa\L	24ccc\L	.	.	.	.	.	.	.	.	.	.	.	8r	8r	.	.
.	.	.	24gg\	24bb\	.	.	.	.	.	.	.	.	.	.	.	.	.	.	.
.	.	.	24ff\JJ	24aa\JJ	.	.	.	.	.	.	.	.	.	.	.	.	.	.	.
8C/	.	8C/	8ee\L	8gg\L	.	.	.	.	.	.	.	.	.	.	.	8cc\	8ee\	4r	4r
!	!	!	!LO:TUP:a:problem=klamra łukowa	!LO:TUP:a:problem=klamra łukowa	!	!	!	!	!	!	!	!	!	!	!	!	!	!	!
8r	.	8r	24aa\L	24ccc\L	.	.	.	.	.	.	.	.	.	.	.	8r	8r	.	.
.	.	.	24gg\	24bb\	.	.	.	.	.	.	.	.	.	.	.	.	.	.	.
.	.	.	24ff\JJ	24aa\JJ	.	.	.	.	.	.	.	.	.	.	.	.	.	.	.
!	!	!	!LO:LB:g=original	!LO:LB:g=original	!	!	!	!	!	!	!	!	!	!	!	!	!	!	!
!	!	!	!	!	!	!	!	!	!	!	!	!	!	!	!	!	!LO:LB:g=original	!	!
=38	=38	=38	=38	=38	=38	=38	=38	=38	=38	=38	=38	=38	=38	=38	=38	=38	=38	=38	=38
*	*	*	*	*	*	*	*	*	*	*	*	*	*	*	*	*	*	*	*Xtuplet
8c\L	.	8c\L	8ee\L	8gg\L	.	.	.	.	.	.	.	.	.	.	1ryy	8cc\	8ee\	4r	4r
!	!	!	!LO:TUP:a:problem=klamra łukowa	!LO:TUP:a:problem=klamra łukowa	!	!	!	!	!	!	!	!	!	!	!	!	!	!	!
8F\	.	8F\	24ff\L	24ccc\L	.	.	.	.	.	.	.	.	.	.	.	8r	8r	.	.
.	.	.	24ee\	24bb\	.	.	.	.	.	.	.	.	.	.	.	.	.	.	.
.	.	.	24dd\JJ	24aa\JJ	.	.	.	.	.	.	.	.	.	.	.	.	.	.	.
!	!	!	!LO:TX:t=P:problem=mixed beam	!	!	!	!	!	!	!	!	!	!	!	!	!	!	!	!
!	!	!	!LO:TUP:a:problem=klamra łukowa	!LO:TUP:a:problem=klamra łukowa	!	!	!	!	!	!	!	!	!	!	!	!	!	!	!
8G\	6 4	8G\	24cc\LL	24ee\LL	.	.	.	.	.	.	.	.	.	.	.	4r	4r	8r	8r
.	.	.	24dd\	24ff\	.	.	.	.	.	.	.	.	.	.	.	.	.	.	.
.	.	.	24ee\J	24gg\JJ	.	.	.	.	.	.	.	.	.	.	.	.	.	.	.
!	!	!	!	!LO:TUP:a:problem=klamra łukowa	!	!	!	!	!	!	!	!	!	!	!	!	!	!	!
8G\J	5 3	8G\J	8f/J	24b\LL	.	.	.	.	.	.	.	.	.	.	.	.	.	8f/	24b\LL
.	.	.	.	24cc\	.	.	.	.	.	.	.	.	.	.	.	.	.	.	24cc\
.	.	.	.	24dd\JJ	.	.	.	.	.	.	.	.	.	.	.	.	.	.	24dd\JJ
!LO:TX:t=P:problem=mixed beam	!	!LO:TX:t=P:problem=mixed beam	!	!	!	!	!	!	!	!	!	!	!	!	!	!	!	!	!
8A\L	.	8A\L	8e/L	8cc/L	.	.	.	.	.	.	.	.	.	.	.	4c/	4cc\	4e/	4cc\
!LO:TX:a:t=P:problem=w źródle nad nutą kreska, przypominająca część cyfrowania	!	!	!	!	!	!	!	!	!	!	!	!	!	!	!	!	!	!	!
!	!	!	!LO:TUP:a:problem=klamra łukowa	!LO:TUP:b:problem=klamra łukowa	!	!	!	!	!	!	!	!	!	!	!	!	!	!	!
8F\	.	8F\	24cc/L	24a/L	.	.	.	.	.	.	.	.	.	.	.	.	.	.	.
.	.	.	24b/	24g/	.	.	.	.	.	.	.	.	.	.	.	.	.	.	.
.	.	.	24a/JJ	24f/JJ	.	.	.	.	.	.	.	.	.	.	.	.	.	.	.
!	!	!	!LO:TUP:b:problem=klamra łukowa, kropka zamiast numeru	!	!	!	!	!	!	!	!	!	!	!	!	!	!	!	!
!	!	!	!	!LO:TUP:b:problem=klamra łukowa	!	!	!	!	!	!	!	!	!	!	!	!	!	!	!
8G\	6 4	8G\	24e/LL	24e/LL	.	.	.	.	.	.	.	.	.	.	.	8r	8r	4r	4r
.	.	.	24f/	24f/	.	.	.	.	.	.	.	.	.	.	.	.	.	.	.
.	.	.	24g/JJ	24g/JJ	.	.	.	.	.	.	.	.	.	.	.	.	.	.	.
!	!	!	!LO:TUP:b:problem=klamra łukowa	!LO:TUP:b:problem=klamra łukowa	!	!	!	!	!	!	!	!	!	!	!	!	!	!	!
8GG/J	5 3	8GG/J	24B/LL	24B/LL	.	.	.	.	.	.	.	.	.	.	.	8g/	8dd\	.	.
.	.	.	24c/	24c/	.	.	.	.	.	.	.	.	.	.	.	.	.	.	.
.	.	.	24d/JJ	24d/JJ	.	.	.	.	.	.	.	.	.	.	.	.	.	.	.
=39	=39	=39	=39	=39	=39	=39	=39	=39	=39	=39	=39	=39	=39	=39	=39	=39	=39	=39	=39
*	*	*	*^	*	*	*	*	*	*	*	*	*	*	*	*	*	*	*	*
!LO:TX:t=P:problem=mixed beam	!	!LO:TX:t=P:problem=mixed beam	!	!	!	!	!	!	!	!	!	!	!	!	!	!	!	!	!	!
16.C/LL	.	16.C/LL	8c/	4ryy	8c/	1r	.	1r	.	1r	.	1r	.	1r	.	1ryy	4e/	4cc\	2cc\	[>2ee\
32c\K	.	32c\K	.	.	.	.	.	.	.	.	.	.	.	.	.	.	.	.	.	.
16.G\	.	16.G\	8r	.	8r	.	.	.	.	.	.	.	.	.	.	.	.	.	.	.
32E\JJk	.	32E\JJk	.	.	.	.	.	.	.	.	.	.	.	.	.	.	.	.	.	.
!LO:TX:t=P:problem=mixed beam	!	!LO:TX:t=P:problem=mixed beam	!	!	!	!	!	!	!	!	!	!	!	!	!	!	!	!	!	!
16.C/LL	.	16.C/LL	4ccc 4ee/	4g/	4ccc 4ee 4g/	.	.	.	.	.	.	.	.	.	.	.	8e/L	8.cc\L	.	.
32c\K	.	32c\K	.	.	.	.	.	.	.	.	.	.	.	.	.	.	.	.	.	.
16.G\	.	16.G\	.	.	.	.	.	.	.	.	.	.	.	.	.	.	8e/J	.	.	.
.	.	.	.	.	.	.	.	.	.	.	.	.	.	.	.	.	.	16cc\Jk	.	.
32E\JJk	.	32E\JJk	.	.	.	.	.	.	.	.	.	.	.	.	.	.	.	.	.	.
4C/	.	4C/	4ccc 4ee/	4g/	4ccc 4ee 4g/	.	.	.	.	.	.	.	.	.	.	.	4e/	4cc\	4cc\	4ee\]
!	!	!LO:TX:b:Bi:t=Violone.\nalto Viola	!LO:TX:b:Bi:t=Violino secondo.	!	!LO:TX:b:Bi:t=Violino\nPrimo.	!	!	!	!	!	!	!	!	!	!	!	!	!	!	!
!	!	!LO:TX:a:t=P:problem=w źródle ozdobna kreska końcowa	!	!	!	!	!	!	!	!	!	!	!	!	!	!	!	!	!	!
!	!	!	!	!	!	!	!	!	!	!	!	!	!	!	!	!	!	!	!LO:TX:a:t=P:problem=w źródle ozdobna kreska końcowa	!LO:TX:a:t=P:problem=w źródle ozdobna kreska końcowa
4r	.	4r	4r	4ryy	4r	.	.	.	.	.	.	.	.	.	.	.	4r	4r	4r;>	4r
*	*	*	*v	*v	*	*	*	*	*	*	*	*	*	*	*	*	*	*	*	*
==	==	==	==	==	==	==	==	==	==	==	==	==	==	==	==	==	==	==	==
*-	*-	*-	*-	*-	*-	*-	*-	*-	*-	*-	*-	*-	*-	*-	*-	*-	*-	*-	*-
!!!system-decoration: [(s1,s2)][(s3,s4)]s5[(s6,s7,s8,s9,s10)][(s11,s12,s13)]s14
!!!RDF**kern: > = above
!!!RDF**kern: < = below
!!!RDF**kern: i = editorial accidental
!!!EED: Wojciech Jakubiak-Danek
!!!EEV: 2021-01-07
!!!ENC: Krzysztof Stępień
!!!END: 2021-01-03
!!!YEC: Copyright 2022 Narodowy Instytut Fryderyka Chopina (https://polishscores.org)
!!!YEM: Licence CC BY 4.0 (https://creativecommons.org/licenses/by/4.0)
